; generated by Slic3r 1.0.0RC2 on 2014-04-12 at 13:30:48

; layer_height = 0.3
; perimeters = 2
; top_solid_layers = 3
; bottom_solid_layers = 2
; fill_density = 0.15
; perimeter_speed = 32
; infill_speed = 50
; travel_speed = 250
; nozzle_diameter = 0.5
; filament_diameter = 1.75
; extrusion_multiplier = 0.9
; perimeters extrusion width = 0.50mm
; infill extrusion width = 0.50mm
; solid infill extrusion width = 0.50mm
; top infill extrusion width = 0.50mm
; first layer extrusion width = 0.50mm

G21 ; set units to millimeters
M107
M190 S105 ; wait for bed temperature to be reached
M104 S240 ; set temperature
G28 X0 Y0
G28 Z0
G1 Z0.3 F200
G1 X15 Y20 F12000
M109 S240 ; wait for temperature to be reached
G90 ; use absolute coordinates
G92 E0
M82 ; use absolute distances for extrusion
G1 F4800.000 E-2.00000
G92 E0
G1 Z0.300 F15000.000
G1 X50.310 Y86.510 F15000.000
G1 E2.00000 F4800.000
G1 X51.610 Y85.990 E2.07859 F960.000
G1 X53.000 Y85.760 E2.15766
G1 X143.500 Y80.910 E7.24440
G1 X157.050 Y80.900 E8.00491
G1 X158.580 Y81.080 E8.09138
G1 X160.030 Y81.620 E8.17822
G1 X161.310 Y82.490 E8.26509
G1 X166.900 Y87.340 E8.68046
G1 X167.850 Y88.360 E8.75870
G1 X168.550 Y89.550 E8.83618
G1 X168.990 Y90.870 E8.91428
G1 X169.140 Y92.250 E8.99219
G1 X169.140 Y107.750 E9.86215
G1 X168.990 Y109.130 E9.94006
G1 X168.550 Y110.450 E10.01816
G1 X167.850 Y111.640 E10.09564
G1 X166.900 Y112.660 E10.17388
G1 X161.310 Y117.510 E10.58925
G1 X160.030 Y118.380 E10.67612
G1 X158.580 Y118.920 E10.76296
G1 X157.050 Y119.100 E10.84943
G1 X143.850 Y119.100 E11.59030
G1 X143.400 Y119.080 E11.61558
G1 X52.900 Y112.730 E16.70752
G1 X51.530 Y112.490 E16.78558
G1 X50.240 Y111.960 E16.86386
G1 X49.100 Y111.170 E16.94170
G1 X48.150 Y110.150 E17.01994
G1 X47.440 Y108.950 E17.09819
G1 X47.000 Y107.630 E17.17629
G1 X46.850 Y106.250 E17.25420
G1 X46.850 Y92.250 E18.03997
G1 X47.000 Y90.850 E18.11900
G1 X47.450 Y89.520 E18.19780
G1 X48.180 Y88.310 E18.27712
G1 X49.140 Y87.290 E18.35573
G1 X50.248 Y86.552 E18.43045
G1 F4800.000 E16.43045
G92 E0
G1 X145.200 Y88.750 F15000.000
G1 E2.00000 F4800.000
G1 X155.700 Y88.750 E2.58933 F780.000
G1 X155.700 Y92.500 E2.79980
G1 X145.200 Y92.500 E3.38913
G1 X145.200 Y88.825 E3.59540
G1 X145.200 Y88.250 F15000.000
G1 F4800.000 E1.59540
G92 E0
G1 X133.078 Y97.631 F15000.000
G1 E2.00000 F4800.000
G1 X133.366 Y98.130 E2.03231 F780.000
G1 X133.544 Y98.677 E2.06463
G1 X133.604 Y99.250 E2.09695
G1 X133.544 Y99.823 E2.12926
G1 X133.366 Y100.370 E2.16158
G1 X133.078 Y100.869 E2.19390
G1 X132.693 Y101.297 E2.22621
G1 X132.227 Y101.635 E2.25853
G1 X131.701 Y101.869 E2.29085
G1 X131.138 Y101.989 E2.32316
G1 X130.562 Y101.989 E2.35548
G1 X129.999 Y101.869 E2.38779
G1 X129.473 Y101.635 E2.42011
G1 X129.007 Y101.297 E2.45243
G1 X128.622 Y100.869 E2.48474
G1 X128.334 Y100.370 E2.51705
G1 X128.156 Y99.823 E2.54937
G1 X128.096 Y99.250 E2.58169
G1 X128.156 Y98.677 E2.61400
G1 X128.334 Y98.130 E2.64632
G1 X128.622 Y97.631 E2.67864
G1 X129.007 Y97.203 E2.71095
G1 X129.473 Y96.865 E2.74327
G1 X129.999 Y96.631 E2.77559
G1 X130.562 Y96.511 E2.80790
G1 X131.138 Y96.511 E2.84022
G1 X131.701 Y96.631 E2.87253
G1 X132.227 Y96.865 E2.90484
G1 X132.693 Y97.203 E2.93717
G1 X133.028 Y97.575 E2.96527
G1 X132.671 Y97.927 F15000.000
G1 X132.907 Y98.334 E2.99169 F780.000
G1 X133.052 Y98.782 E3.01810
G1 X133.101 Y99.250 E3.04452
G1 X133.052 Y99.718 E3.07094
G1 X132.907 Y100.166 E3.09735
G1 X132.671 Y100.573 E3.12377
G1 X132.357 Y100.923 E3.15019
G1 X131.976 Y101.200 E3.17661
G1 X131.546 Y101.391 E3.20302
G1 X131.085 Y101.489 E3.22944
G1 X130.615 Y101.489 E3.25586
G1 X130.154 Y101.391 E3.28227
G1 X129.724 Y101.200 E3.30869
G1 X129.343 Y100.923 E3.33511
G1 X129.029 Y100.573 E3.36152
G1 X128.793 Y100.166 E3.38794
G1 X128.648 Y99.718 E3.41436
G1 X128.599 Y99.250 E3.44077
G1 X128.648 Y98.782 E3.46719
G1 X128.793 Y98.334 E3.49361
G1 X129.029 Y97.927 E3.52002
G1 X129.343 Y97.577 E3.54644
G1 X129.724 Y97.300 E3.57286
G1 X130.154 Y97.109 E3.59928
G1 X130.615 Y97.011 E3.62569
G1 X131.085 Y97.011 E3.65211
G1 X131.546 Y97.109 E3.67852
G1 X131.976 Y97.300 E3.70494
G1 X132.357 Y97.577 E3.73136
G1 X132.621 Y97.871 E3.75356
G1 X133.141 Y97.894 F15000.000
G1 F4800.000 E1.75356
G92 E0
G1 X118.604 Y99.250 F15000.000
G1 E2.00000 F4800.000
G1 X118.544 Y99.823 E2.03232 F780.000
G1 X118.366 Y100.370 E2.06463
G1 X118.078 Y100.869 E2.09695
G1 X117.693 Y101.297 E2.12926
G1 X117.227 Y101.635 E2.16158
G1 X116.701 Y101.869 E2.19390
G1 X116.138 Y101.989 E2.22621
G1 X115.562 Y101.989 E2.25853
G1 X114.999 Y101.869 E2.29084
G1 X114.473 Y101.635 E2.32316
G1 X114.007 Y101.297 E2.35548
G1 X113.622 Y100.869 E2.38779
G1 X113.334 Y100.370 E2.42011
G1 X113.156 Y99.823 E2.45242
G1 X113.096 Y99.250 E2.48474
G1 X113.156 Y98.677 E2.51705
G1 X113.334 Y98.130 E2.54937
G1 X113.622 Y97.631 E2.58169
G1 X114.007 Y97.203 E2.61400
G1 X114.473 Y96.865 E2.64632
G1 X114.999 Y96.631 E2.67864
G1 X115.562 Y96.511 E2.71095
G1 X116.138 Y96.511 E2.74327
G1 X116.701 Y96.631 E2.77558
G1 X117.227 Y96.865 E2.80790
G1 X117.693 Y97.203 E2.84022
G1 X118.078 Y97.631 E2.87253
G1 X118.366 Y98.130 E2.90485
G1 X118.544 Y98.677 E2.93716
G1 X118.596 Y99.175 E2.96527
G1 X118.101 Y99.250 F15000.000
G1 X118.052 Y99.718 E2.99169 F780.000
G1 X117.907 Y100.166 E3.01810
G1 X117.671 Y100.573 E3.04452
G1 X117.357 Y100.923 E3.07093
G1 X116.976 Y101.200 E3.09735
G1 X116.546 Y101.391 E3.12377
G1 X116.085 Y101.489 E3.15018
G1 X115.615 Y101.489 E3.17661
G1 X115.154 Y101.391 E3.20302
G1 X114.724 Y101.200 E3.22944
G1 X114.343 Y100.923 E3.25586
G1 X114.029 Y100.573 E3.28227
G1 X113.793 Y100.166 E3.30869
G1 X113.648 Y99.718 E3.33511
G1 X113.599 Y99.250 E3.36152
G1 X113.648 Y98.782 E3.38794
G1 X113.793 Y98.334 E3.41436
G1 X114.029 Y97.927 E3.44077
G1 X114.343 Y97.577 E3.46719
G1 X114.724 Y97.300 E3.49361
G1 X115.154 Y97.109 E3.52002
G1 X115.615 Y97.011 E3.54644
G1 X116.085 Y97.011 E3.57286
G1 X116.546 Y97.109 E3.59927
G1 X116.976 Y97.300 E3.62569
G1 X117.357 Y97.577 E3.65211
G1 X117.671 Y97.927 E3.67852
G1 X117.907 Y98.334 E3.70494
G1 X118.052 Y98.782 E3.73136
G1 X118.094 Y99.175 E3.75356
G1 X118.501 Y99.499 F15000.000
G1 F4800.000 E1.75356
G92 E0
G1 X103.604 Y99.250 F15000.000
G1 E2.00000 F4800.000
G1 X103.544 Y99.823 E2.03232 F780.000
G1 X103.366 Y100.370 E2.06463
G1 X103.078 Y100.869 E2.09695
G1 X102.693 Y101.297 E2.12926
G1 X102.227 Y101.635 E2.16158
G1 X101.701 Y101.869 E2.19390
G1 X101.138 Y101.989 E2.22621
G1 X100.562 Y101.989 E2.25853
G1 X99.999 Y101.869 E2.29084
G1 X99.473 Y101.635 E2.32316
G1 X99.007 Y101.297 E2.35548
G1 X98.622 Y100.869 E2.38779
G1 X98.334 Y100.370 E2.42011
G1 X98.156 Y99.823 E2.45242
G1 X98.096 Y99.250 E2.48474
G1 X98.156 Y98.677 E2.51705
G1 X98.334 Y98.130 E2.54937
G1 X98.622 Y97.631 E2.58169
G1 X99.007 Y97.203 E2.61400
G1 X99.473 Y96.865 E2.64632
G1 X99.999 Y96.631 E2.67864
G1 X100.562 Y96.511 E2.71095
G1 X101.138 Y96.511 E2.74327
G1 X101.701 Y96.631 E2.77558
G1 X102.227 Y96.865 E2.80790
G1 X102.693 Y97.203 E2.84022
G1 X103.078 Y97.631 E2.87253
G1 X103.366 Y98.130 E2.90485
G1 X103.544 Y98.677 E2.93716
G1 X103.596 Y99.175 E2.96527
G1 X103.101 Y99.250 F15000.000
G1 X103.052 Y99.718 E2.99169 F780.000
G1 X102.907 Y100.166 E3.01810
G1 X102.671 Y100.573 E3.04452
G1 X102.357 Y100.923 E3.07093
G1 X101.976 Y101.200 E3.09735
G1 X101.546 Y101.391 E3.12377
G1 X101.085 Y101.489 E3.15018
G1 X100.615 Y101.489 E3.17661
G1 X100.154 Y101.391 E3.20302
G1 X99.724 Y101.200 E3.22944
G1 X99.343 Y100.923 E3.25586
G1 X99.029 Y100.573 E3.28227
G1 X98.793 Y100.166 E3.30869
G1 X98.648 Y99.718 E3.33511
G1 X98.599 Y99.250 E3.36152
G1 X98.648 Y98.782 E3.38794
G1 X98.793 Y98.334 E3.41436
G1 X99.029 Y97.927 E3.44077
G1 X99.343 Y97.577 E3.46719
G1 X99.724 Y97.300 E3.49361
G1 X100.154 Y97.109 E3.52002
G1 X100.615 Y97.011 E3.54644
G1 X101.085 Y97.011 E3.57286
G1 X101.546 Y97.109 E3.59927
G1 X101.976 Y97.300 E3.62569
G1 X102.357 Y97.577 E3.65211
G1 X102.671 Y97.927 E3.67852
G1 X102.907 Y98.334 E3.70494
G1 X103.052 Y98.782 E3.73136
G1 X103.094 Y99.175 E3.75356
G1 X103.501 Y99.499 F15000.000
G1 F4800.000 E1.75356
G92 E0
G1 X88.604 Y99.250 F15000.000
G1 E2.00000 F4800.000
G1 X88.544 Y99.823 E2.03232 F780.000
G1 X88.366 Y100.370 E2.06463
G1 X88.078 Y100.869 E2.09695
G1 X87.693 Y101.297 E2.12926
G1 X87.227 Y101.635 E2.16158
G1 X86.701 Y101.869 E2.19390
G1 X86.138 Y101.989 E2.22621
G1 X85.562 Y101.989 E2.25853
G1 X84.999 Y101.869 E2.29084
G1 X84.473 Y101.635 E2.32316
G1 X84.007 Y101.297 E2.35548
G1 X83.622 Y100.869 E2.38779
G1 X83.334 Y100.370 E2.42011
G1 X83.219 Y100.016 E2.44100
G1 X83.015 Y100.016 E2.45243
G1 X83.156 Y98.677 E2.52798
G1 X83.334 Y98.130 E2.56030
G1 X83.622 Y97.631 E2.59261
G1 X84.007 Y97.203 E2.62493
G1 X84.473 Y96.865 E2.65725
G1 X84.999 Y96.631 E2.68956
G1 X85.562 Y96.511 E2.72188
G1 X86.138 Y96.511 E2.75420
G1 X86.701 Y96.631 E2.78651
G1 X87.227 Y96.865 E2.81882
G1 X87.693 Y97.203 E2.85114
G1 X88.078 Y97.631 E2.88346
G1 X88.366 Y98.130 E2.91577
G1 X88.544 Y98.677 E2.94809
G1 X88.596 Y99.175 E2.97620
G1 X88.101 Y99.250 F15000.000
G1 X88.052 Y99.718 E3.00261 F780.000
G1 X87.907 Y100.166 E3.02903
G1 X87.671 Y100.573 E3.05545
G1 X87.357 Y100.923 E3.08186
G1 X86.976 Y101.200 E3.10828
G1 X86.546 Y101.391 E3.13470
G1 X86.085 Y101.489 E3.16111
G1 X85.615 Y101.489 E3.18753
G1 X85.154 Y101.391 E3.21395
G1 X84.724 Y101.200 E3.24036
G1 X84.343 Y100.923 E3.26678
G1 X84.029 Y100.573 E3.29320
G1 X83.793 Y100.166 E3.31961
G1 X83.648 Y99.718 E3.34603
G1 X83.627 Y99.516 E3.35743
G1 X83.571 Y99.516 E3.36057
G1 X83.648 Y98.782 E3.40200
G1 X83.793 Y98.334 E3.42842
G1 X84.029 Y97.927 E3.45484
G1 X84.343 Y97.577 E3.48125
G1 X84.724 Y97.300 E3.50767
G1 X85.154 Y97.109 E3.53409
G1 X85.615 Y97.011 E3.56050
G1 X86.085 Y97.011 E3.58692
G1 X86.546 Y97.109 E3.61334
G1 X86.976 Y97.300 E3.63975
G1 X87.357 Y97.577 E3.66617
G1 X87.671 Y97.927 E3.69259
G1 X87.907 Y98.334 E3.71901
G1 X88.052 Y98.782 E3.74542
G1 X88.094 Y99.175 E3.76763
G1 X88.501 Y99.499 F15000.000
G1 F4800.000 E1.76763
G92 E0
G1 X73.604 Y99.250 F15000.000
G1 E2.00000 F4800.000
G1 X73.544 Y99.823 E2.03232 F780.000
G1 X73.366 Y100.370 E2.06463
G1 X73.078 Y100.869 E2.09695
G1 X72.693 Y101.297 E2.12926
G1 X72.227 Y101.635 E2.16158
G1 X71.701 Y101.869 E2.19390
G1 X71.138 Y101.989 E2.22621
G1 X70.562 Y101.989 E2.25853
G1 X69.999 Y101.869 E2.29084
G1 X69.473 Y101.635 E2.32316
G1 X69.007 Y101.297 E2.35548
G1 X68.622 Y100.869 E2.38779
G1 X68.334 Y100.370 E2.42011
G1 X68.156 Y99.823 E2.45242
G1 X68.096 Y99.250 E2.48474
G1 X68.156 Y98.677 E2.51706
G1 X68.334 Y98.130 E2.54937
G1 X68.622 Y97.631 E2.58169
G1 X69.007 Y97.203 E2.61400
G1 X69.473 Y96.865 E2.64632
G1 X69.999 Y96.631 E2.67864
G1 X70.562 Y96.511 E2.71095
G1 X71.138 Y96.511 E2.74327
G1 X71.701 Y96.631 E2.77558
G1 X72.227 Y96.865 E2.80790
G1 X72.693 Y97.203 E2.84022
G1 X73.078 Y97.631 E2.87253
G1 X73.366 Y98.130 E2.90485
G1 X73.544 Y98.677 E2.93716
G1 X73.596 Y99.175 E2.96527
G1 X73.101 Y99.250 F15000.000
G1 X73.052 Y99.718 E2.99169 F780.000
G1 X72.907 Y100.166 E3.01810
G1 X72.671 Y100.573 E3.04452
G1 X72.357 Y100.923 E3.07093
G1 X71.976 Y101.200 E3.09735
G1 X71.546 Y101.391 E3.12377
G1 X71.085 Y101.489 E3.15018
G1 X70.615 Y101.489 E3.17661
G1 X70.154 Y101.391 E3.20302
G1 X69.724 Y101.200 E3.22944
G1 X69.343 Y100.923 E3.25586
G1 X69.029 Y100.573 E3.28227
G1 X68.793 Y100.166 E3.30869
G1 X68.648 Y99.718 E3.33510
G1 X68.599 Y99.250 E3.36152
G1 X68.648 Y98.782 E3.38794
G1 X68.793 Y98.334 E3.41436
G1 X69.029 Y97.927 E3.44077
G1 X69.343 Y97.577 E3.46719
G1 X69.724 Y97.300 E3.49361
G1 X70.154 Y97.109 E3.52002
G1 X70.615 Y97.011 E3.54644
G1 X71.085 Y97.011 E3.57286
G1 X71.546 Y97.109 E3.59927
G1 X71.976 Y97.300 E3.62569
G1 X72.357 Y97.577 E3.65211
G1 X72.671 Y97.927 E3.67852
G1 X72.907 Y98.334 E3.70494
G1 X73.052 Y98.782 E3.73136
G1 X73.094 Y99.175 E3.75356
G1 X73.501 Y99.499 F15000.000
G1 F4800.000 E1.75356
G92 E0
G1 X145.200 Y107.500 F15000.000
G1 E2.00000 F4800.000
G1 X155.700 Y107.500 E2.58933 F780.000
G1 X155.700 Y111.250 E2.79980
G1 X145.200 Y111.250 E3.38913
G1 X145.200 Y107.575 E3.59540
G1 X145.200 Y107.000 F15000.000
G1 X144.000 Y107.000 F15000.000
G1 X144.000 Y105.500 E3.67958 F960.000
G1 X54.100 Y105.500 E8.72535
G1 X54.100 Y93.000 E9.42694
G1 X159.700 Y93.000 E15.35389
G1 X159.700 Y107.000 E16.13966
G1 X144.075 Y107.000 E17.01664
G1 X144.100 Y107.500 F15000.000
G1 X143.500 Y107.500 E17.05032 F780.000
G1 X143.500 Y106.000 E17.13451
G1 X53.600 Y106.000 E22.18028
G1 X53.600 Y92.500 E22.93798
G1 X144.100 Y92.500 E28.01743
G1 X144.100 Y87.650 E28.28964
G1 X156.800 Y87.650 E29.00245
G1 X156.800 Y92.500 E29.27466
G1 X162.400 Y92.500 E29.58897
G1 X162.400 Y93.612 E29.65139
G1 X160.200 Y93.612 E29.77486
G1 X160.200 Y106.388 E30.49193
G1 X162.400 Y106.388 E30.61541
G1 X162.400 Y107.500 E30.67782
G1 X156.800 Y107.500 E30.99213
G1 X156.800 Y112.350 E31.26434
G1 X144.100 Y112.350 E31.97715
G1 X144.100 Y107.575 E32.24515
G1 X144.100 Y107.000 F15000.000
G1 X144.898 Y106.663 F15000.000
G1 X144.337 Y106.102 E32.28990 F1200.000
G1 X144.337 Y105.391 E32.33006
G1 X145.609 Y106.663 E32.43160
G1 F4800.000 E30.43160
G92 E0
G1 X131.669 Y96.279 F15000.000
G1 E2.00000 F4800.000
G1 X128.727 Y93.337 E2.23487 F1200.000
G1 X128.016 Y93.337 E2.27503
G1 X130.852 Y96.174 E2.50149
G1 X130.209 Y96.241 E2.53803
G1 X127.305 Y93.337 E2.76988
G1 X126.593 Y93.337 E2.81004
G1 X129.666 Y96.410 E3.05535
G1 X129.195 Y96.650 E3.08520
G1 X125.882 Y93.337 E3.34970
G1 X125.171 Y93.337 E3.38985
G1 X128.783 Y96.949 E3.67824
G1 X128.445 Y97.323 E3.70667
G1 X124.460 Y93.337 E4.02491
G1 X123.748 Y93.337 E4.06507
G1 X128.163 Y97.752 E4.41753
G1 X127.943 Y98.243 E4.44791
G1 X123.037 Y93.337 E4.83959
G1 X122.326 Y93.337 E4.87974
G1 X127.802 Y98.814 E5.31702
G1 X127.784 Y99.506 E5.35613
G1 X121.614 Y93.337 E5.84870
G1 X120.903 Y93.337 E5.88885
G1 X128.000 Y100.434 E6.45549
G1 F4800.000 E4.45549
G92 E0
G1 X125.616 Y105.163 F15000.000
G1 E2.00000 F4800.000
G1 X118.787 Y98.334 E2.54522 F1200.000
G1 X118.938 Y99.196 E2.59462
G1 X124.904 Y105.163 E3.07103
G1 X124.193 Y105.163 E3.11118
G1 X118.880 Y99.850 E3.53538
G1 X118.713 Y100.394 E3.56752
G1 X123.482 Y105.163 E3.94828
G1 X122.771 Y105.163 E3.98843
G1 X118.471 Y100.863 E4.33173
G1 X118.169 Y101.272 E4.36045
G1 X122.059 Y105.163 E4.67107
G1 X121.348 Y105.163 E4.71123
G1 X117.812 Y101.627 E4.99354
G1 X117.400 Y101.926 E5.02229
G1 X120.637 Y105.163 E5.28070
G1 X119.925 Y105.163 E5.32085
G1 X116.909 Y102.146 E5.56171
G1 X116.342 Y102.291 E5.59473
G1 X119.214 Y105.163 E5.82406
G1 X118.503 Y105.163 E5.86421
G1 X115.667 Y102.326 E6.09067
G1 X114.762 Y102.133 E6.14289
G1 X117.792 Y105.163 E6.38478
G1 F4800.000 E4.38478
G92 E0
G1 X100.276 Y93.337 F15000.000
G1 E2.00000 F4800.000
G1 X112.101 Y105.163 E2.94418 F1200.000
G1 X112.813 Y105.163 E2.98433
G1 X100.987 Y93.337 E3.92851
G1 X101.699 Y93.337 E3.96866
G1 X113.524 Y105.163 E4.91284
G1 X114.235 Y105.163 E4.95300
G1 X102.410 Y93.337 E5.89717
G1 X103.121 Y93.337 E5.93733
G1 X114.947 Y105.163 E6.88150
G1 X115.658 Y105.163 E6.92166
G1 X103.832 Y93.337 E7.86584
G1 X104.544 Y93.337 E7.90599
G1 X116.369 Y105.163 E8.85017
G1 X117.080 Y105.163 E8.89033
G1 X105.255 Y93.337 E9.83450
G1 X105.966 Y93.337 E9.87466
G1 X112.970 Y100.341 E10.43383
G1 X112.776 Y99.436 E10.48607
G1 X106.678 Y93.337 E10.97300
G1 X107.389 Y93.337 E11.01316
G1 X112.808 Y98.757 E11.44588
G1 X112.958 Y98.195 E11.47870
G1 X108.100 Y93.337 E11.86657
G1 X108.811 Y93.337 E11.90673
G1 X113.186 Y97.712 E12.25600
G1 X113.475 Y97.290 E12.28488
G1 X109.523 Y93.337 E12.60046
G1 X110.234 Y93.337 E12.64062
G1 X113.819 Y96.923 E12.92689
G1 X114.231 Y96.623 E12.95564
G1 X110.945 Y93.337 E13.21801
G1 X111.657 Y93.337 E13.25817
G1 X114.709 Y96.390 E13.50193
G1 X115.261 Y96.230 E13.53433
G1 X112.368 Y93.337 E13.76530
G1 X113.079 Y93.337 E13.80546
G1 X115.915 Y96.174 E14.03192
G1 X116.749 Y96.296 E14.07949
G1 X113.790 Y93.337 E14.31572
G1 X114.502 Y93.337 E14.35588
G1 X126.327 Y105.163 E15.30006
G1 X127.038 Y105.163 E15.34021
G1 X115.213 Y93.337 E16.28439
G1 X115.924 Y93.337 E16.32455
G1 X127.750 Y105.163 E17.26872
G1 X128.461 Y105.163 E17.30888
