; generated by Slic3r 1.0.0RC2 on 2014-04-12 at 14:45:32

; layer_height = 0.3
; perimeters = 2
; top_solid_layers = 3
; bottom_solid_layers = 2
; fill_density = 0.15
; perimeter_speed = 32
; infill_speed = 50
; travel_speed = 250
; nozzle_diameter = 0.5
; filament_diameter = 1.75
; extrusion_multiplier = 0.9
; perimeters extrusion width = 0.50mm
; infill extrusion width = 0.50mm
; solid infill extrusion width = 0.50mm
; top infill extrusion width = 0.50mm
; first layer extrusion width = 0.50mm

G21 ; set units to millimeters
M107
M190 S105 ; wait for bed temperature to be reached
M104 S240 ; set temperature
G28 X0 Y0
G28 Z0
G1 Z0.3 F200
G1 X15 Y20 F12000
M109 S240 ; wait for temperature to be reached
G90 ; use absolute coordinates
G92 E0
M82 ; use absolute distances for extrusion
G1 F4800.000 E-2.00000
G92 E0
G1 Z0.300 F15000.000
G1 X75.300 Y78.460 F15000.000
G1 E2.00000 F4800.000
G1 X76.380 Y77.660 E2.07544 F960.000
G1 X77.600 Y77.100 E2.15078
G1 X101.720 Y68.850 E3.58155
G1 X102.750 Y68.590 E3.64117
G1 X103.820 Y68.500 E3.70144
G1 X105.570 Y68.500 E3.79966
G1 X107.290 Y68.730 E3.89706
G1 X108.880 Y69.410 E3.99412
G1 X144.640 Y90.610 E6.32740
G1 X145.720 Y91.410 E6.40283
G1 X146.610 Y92.420 E6.47839
G1 X147.280 Y93.580 E6.55358
G1 X147.690 Y94.860 E6.62901
G1 X147.830 Y96.200 E6.70463
G1 X147.830 Y112.000 E7.59143
G1 X147.700 Y113.310 E7.66532
G1 X147.300 Y114.580 E7.74005
G1 X146.650 Y115.730 E7.81419
G1 X145.790 Y116.730 E7.88822
G1 X144.740 Y117.530 E7.96231
G1 X143.550 Y118.110 E8.03661
G1 X107.790 Y131.110 E10.17221
G1 X106.700 Y131.400 E10.23551
G1 X105.570 Y131.500 E10.29918
G1 X103.820 Y131.500 E10.39740
G1 X102.750 Y131.410 E10.45767
G1 X101.720 Y131.150 E10.51729
G1 X77.600 Y122.900 E11.94807
G1 X76.380 Y122.340 E12.02341
G1 X75.300 Y121.540 E12.09884
G1 X74.410 Y120.530 E12.17440
G1 X73.750 Y119.360 E12.24980
G1 X73.340 Y118.090 E12.32470
G1 X73.200 Y116.750 E12.40032
G1 X73.200 Y83.250 E14.28055
G1 X73.340 Y81.910 E14.35617
G1 X73.750 Y80.640 E14.43108
G1 X74.410 Y79.470 E14.50647
G1 X75.250 Y78.516 E14.57782
G1 F4800.000 E12.57782
G92 E0
G1 X118.597 Y102.776 F15000.000
G1 E2.00000 F4800.000
G1 X118.937 Y102.187 E2.03818 F780.000
G1 X119.393 Y101.682 E2.07636
G1 X119.943 Y101.282 E2.11455
G1 X120.564 Y101.005 E2.15273
G1 X121.230 Y100.864 E2.19091
G1 X121.910 Y100.864 E2.22910
G1 X122.576 Y101.005 E2.26728
G1 X123.197 Y101.282 E2.30546
G1 X123.747 Y101.682 E2.34365
G1 X124.203 Y102.187 E2.38183
G1 X124.543 Y102.776 E2.42001
G1 X124.753 Y103.423 E2.45819
G1 X124.824 Y104.100 E2.49638
G1 X124.753 Y104.777 E2.53456
G1 X124.543 Y105.424 E2.57274
G1 X124.203 Y106.013 E2.61092
G1 X123.747 Y106.518 E2.64911
G1 X123.197 Y106.918 E2.68729
G1 X122.576 Y107.195 E2.72547
G1 X121.910 Y107.336 E2.76365
G1 X121.230 Y107.336 E2.80184
G1 X120.564 Y107.195 E2.84002
G1 X119.943 Y106.918 E2.87820
G1 X119.393 Y106.518 E2.91639
G1 X118.937 Y106.013 E2.95457
G1 X118.597 Y105.424 E2.99275
G1 X118.387 Y104.777 E3.03093
G1 X118.316 Y104.100 E3.06912
G1 X118.387 Y103.423 E3.10730
G1 X118.574 Y102.848 E3.14127
G1 X119.056 Y102.981 F15000.000
G1 X119.344 Y102.483 E3.17356 F780.000
G1 X119.729 Y102.055 E3.20584
G1 X120.194 Y101.717 E3.23812
G1 X120.720 Y101.483 E3.27041
G1 X121.282 Y101.364 E3.30269
G1 X121.858 Y101.364 E3.33497
G1 X122.420 Y101.483 E3.36726
G1 X122.946 Y101.717 E3.39954
G1 X123.411 Y102.055 E3.43183
G1 X123.796 Y102.483 E3.46411
G1 X124.084 Y102.981 E3.49639
G1 X124.261 Y103.528 E3.52868
G1 X124.321 Y104.100 E3.56096
G1 X124.261 Y104.672 E3.59324
G1 X124.083 Y105.219 E3.62553
G1 X123.796 Y105.717 E3.65781
G1 X123.411 Y106.145 E3.69009
G1 X122.946 Y106.483 E3.72238
G1 X122.420 Y106.717 E3.75466
G1 X121.858 Y106.836 E3.78694
G1 X121.282 Y106.836 E3.81923
G1 X120.720 Y106.717 E3.85151
G1 X120.194 Y106.483 E3.88380
G1 X119.729 Y106.145 E3.91608
G1 X119.344 Y105.717 E3.94836
G1 X119.056 Y105.219 E3.98065
G1 X118.879 Y104.672 E4.01293
G1 X118.819 Y104.100 E4.04521
G1 X118.879 Y103.528 E4.07750
G1 X119.033 Y103.052 E4.10557
G1 X118.777 Y102.566 F15000.000
G1 F4800.000 E2.10557
G92 E0
G1 X117.420 Y98.750 F15000.000
G1 E2.00000 F4800.000
G1 X117.420 Y96.950 E2.10103 F960.000
G1 X140.580 Y96.950 E3.40092
G1 X140.580 Y111.250 E4.20353
G1 X104.570 Y111.250 E6.22464
G1 X104.570 Y98.750 E6.92622
G1 X117.345 Y98.750 E7.64324
G1 X116.920 Y98.250 F15000.000
G1 X116.920 Y96.450 E7.74426 F780.000
G1 X141.080 Y96.450 E9.10028
G1 X141.080 Y111.750 E9.95902
G1 X105.320 Y111.750 E11.96610
G1 X105.320 Y124.750 E12.69574
G1 X104.070 Y124.750 E12.76590
G1 X104.070 Y116.500 E13.22894
G1 X79.958 Y116.500 E14.58226
G1 X79.958 Y115.250 E14.65242
G1 X104.070 Y115.250 E16.00574
G1 X104.070 Y84.750 E17.71760
G1 X79.958 Y84.750 E19.07092
G1 X79.958 Y83.500 E19.14108
G1 X104.070 Y83.500 E20.49440
G1 X104.070 Y75.250 E20.95744
G1 X105.320 Y75.250 E21.02760
G1 X105.320 Y98.250 E22.31851
G1 X116.845 Y98.250 E22.96537
G1 X117.420 Y98.250 F15000.000
G1 F4800.000 E20.96537
G92 E0
G1 X122.253 Y100.592 F15000.000
G1 E2.00000 F4800.000
G1 X118.949 Y97.287 E2.26264 F1200.000
G1 X118.241 Y97.287 E2.30244
G1 X121.480 Y100.526 E2.55989
G1 X120.846 Y100.600 E2.59577
G1 X117.757 Y97.512 E2.84125
G1 X117.757 Y98.220 E2.88105
G1 X120.294 Y100.756 E3.08264
G1 X119.804 Y100.975 E3.11278
G1 X117.757 Y98.928 E3.27543
G1 X117.208 Y99.087 E3.30756
G1 X119.388 Y101.268 E3.48085
G1 X119.012 Y101.600 E3.50905
G1 X116.500 Y99.087 E3.70873
G1 X115.792 Y99.087 E3.74853
G1 X118.677 Y101.972 E3.97784
G1 X118.415 Y102.418 E4.00691
G1 X115.084 Y99.087 E4.27165
G1 X114.376 Y99.087 E4.31145
G1 X118.199 Y102.910 E4.61533
G1 X118.043 Y103.463 E4.64760
G1 X113.668 Y99.087 E4.99541
G1 X112.960 Y99.087 E5.03522
G1 X117.977 Y104.105 E5.43404
G1 X118.076 Y104.912 E5.47975
G1 X112.252 Y99.087 E5.94274
G1 X111.543 Y99.087 E5.98254
G1 X118.656 Y106.200 E6.54787
G1 X119.388 Y106.932 F15000.000
G1 X123.369 Y110.913 E6.86426 F1200.000
G1 X122.660 Y110.913 E6.90406
G1 X110.835 Y99.087 E7.84401
G1 X110.127 Y99.087 E7.88381
G1 X121.952 Y110.913 E8.82377
G1 X121.244 Y110.913 E8.86357
G1 X109.419 Y99.087 E9.80353
G1 X108.711 Y99.087 E9.84333
G1 X120.536 Y110.913 E10.78329
G1 X119.828 Y110.913 E10.82309
G1 X108.003 Y99.087 E11.76305
G1 X107.295 Y99.087 E11.80285
G1 X119.120 Y110.913 E12.74280
G1 X118.412 Y110.913 E12.78261
G1 X106.587 Y99.087 E13.72256
G1 X105.879 Y99.087 E13.76236
G1 X117.704 Y110.913 E14.70232
G1 X116.996 Y110.913 E14.74212
G1 X105.170 Y99.087 E15.68208
G1 X104.907 Y99.533 E15.71114
G1 X116.287 Y110.913 E16.61571
G1 X115.579 Y110.913 E16.65551
G1 X104.907 Y100.241 E17.50380
G1 X104.907 Y100.949 E17.54360
G1 X114.871 Y110.913 E18.33560
G1 X114.163 Y110.913 E18.37540
G1 X104.907 Y101.657 E19.11111
G1 X104.907 Y102.365 E19.15091
G1 X113.455 Y110.913 E19.83033
G1 X112.747 Y110.913 E19.87013
G1 X104.907 Y103.073 E20.49327
G1 X104.907 Y103.781 E20.53307
G1 X112.039 Y110.913 E21.09992
G1 X111.331 Y110.913 E21.13972
G1 X104.907 Y104.489 E21.65029
G1 X104.907 Y105.198 E21.69009
G1 X110.622 Y110.913 E22.14436
G1 X109.914 Y110.913 E22.18416
G1 X104.907 Y105.906 E22.58215
G1 X104.907 Y106.614 E22.62195
G1 X109.206 Y110.913 E22.96366
G1 X108.498 Y110.913 E23.00346
G1 X104.907 Y107.322 E23.28887
G1 X104.907 Y108.030 E23.32867
G1 X107.790 Y110.913 E23.55780
G1 X107.082 Y110.913 E23.59760
G1 X104.907 Y108.738 E23.77044
G1 X104.907 Y109.446 E23.81024
G1 X106.374 Y110.913 E23.92680
G1 X105.666 Y110.913 E23.96660
G1 X104.907 Y110.154 E24.02687
G1 X104.907 Y110.862 E24.06667
G1 X104.958 Y110.913 E24.07065
G1 F4800.000 E22.07065
G92 E0
G1 X124.077 Y110.913 F15000.000
G1 E2.00000 F4800.000
G1 X120.742 Y107.578 E2.26510 F1200.000
G1 X121.546 Y107.674 E2.31063
G1 X124.785 Y110.913 E2.56808
G1 X125.493 Y110.913 E2.60788
G1 X122.200 Y107.620 E2.86962
G1 X122.767 Y107.479 E2.90248
G1 X126.201 Y110.913 E3.17542
G1 X126.909 Y110.913 E3.21522
G1 X123.257 Y107.261 E3.50549
G1 X123.685 Y106.981 E3.53424
G1 X127.617 Y110.913 E3.84679
G1 X128.325 Y110.913 E3.88659
G1 X124.073 Y106.661 E4.22458
G1 X124.409 Y106.288 E4.25276
G1 X129.033 Y110.913 E4.62036
G1 X129.742 Y110.913 E4.66016
G1 X124.684 Y105.855 E5.06221
G1 X124.913 Y105.376 E5.09205
G1 X130.450 Y110.913 E5.53215
G1 X131.158 Y110.913 E5.57195
G1 X125.086 Y104.840 E6.05462
G1 X125.153 Y104.200 E6.09083
G1 X131.866 Y110.913 E6.62444
G1 X132.574 Y110.913 E6.66424
G1 X125.093 Y103.432 E7.25888
G1 X124.641 Y102.271 F15000.000
G1 X133.282 Y110.913 E7.94579 F1200.000
G1 X133.990 Y110.913 E7.98559
G1 X120.365 Y97.287 E9.06862
G1 X119.657 Y97.287 E9.10842
G1 X123.350 Y100.981 E9.40200
G1 F4800.000 E7.40200
G92 E0
G1 X134.698 Y110.913 F15000.000
G1 E2.00000 F4800.000
G1 X121.073 Y97.287 E3.08304 F1200.000
G1 X121.781 Y97.287 E3.12284
G1 X135.407 Y110.913 E4.20587
G1 X136.115 Y110.913 E4.24567
G1 X122.490 Y97.287 E5.32871
G1 X123.198 Y97.287 E5.36851
G1 X136.823 Y110.913 E6.45155
G1 X137.531 Y110.913 E6.49135
G1 X123.906 Y97.287 E7.57438
G1 X124.614 Y97.287 E7.61419
G1 X138.239 Y110.913 E8.69722
G1 X138.947 Y110.913 E8.73702
G1 X125.322 Y97.287 E9.82006
G1 X126.030 Y97.287 E9.85986
G1 X139.655 Y110.913 E10.94290
G1 X140.243 Y110.792 E10.97660
G1 X126.738 Y97.287 E12.05003
G1 X127.446 Y97.287 E12.08983
G1 X140.243 Y110.084 E13.10698
G1 X140.243 Y109.376 E13.14678
G1 X128.154 Y97.287 E14.10764
G1 X128.863 Y97.287 E14.14744
G1 X140.243 Y108.667 E15.05201
G1 X140.243 Y107.959 E15.09181
G1 X129.571 Y97.287 E15.94009
G1 X130.279 Y97.287 E15.97990
G1 X140.243 Y107.251 E16.77189
G1 X140.243 Y106.543 E16.81169
G1 X130.987 Y97.287 E17.54740
G1 X131.695 Y97.287 E17.58721
G1 X140.243 Y105.835 E18.26663
G1 X140.243 Y105.127 E18.30643
G1 X132.403 Y97.287 E18.92957
G1 X133.111 Y97.287 E18.96937
G1 X140.243 Y104.419 E19.53622
G1 X140.243 Y103.711 E19.57602
G1 X133.819 Y97.287 E20.08658
G1 X134.528 Y97.287 E20.12638
G1 X140.243 Y103.002 E20.58066
G1 X140.243 Y102.294 E20.62046
G1 X135.236 Y97.287 E21.01845
G1 X135.944 Y97.287 E21.05825
G1 X140.243 Y101.586 E21.39995
G1 X140.243 Y100.878 E21.43975
G1 X136.652 Y97.287 E21.72517
G1 X137.360 Y97.287 E21.76497
G1 X140.243 Y100.170 E21.99410
G1 X140.243 Y99.462 E22.03390
G1 X138.068 Y97.287 E22.20674
G1 X138.776 Y97.287 E22.24654
G1 X140.243 Y98.754 E22.36309
G1 X140.243 Y98.046 E22.40289
G1 X139.484 Y97.287 E22.46316
G1 X140.192 Y97.287 E22.50296
G1 X140.243 Y97.338 E22.50694
G1 F4800.000 E20.50694
G92 E0
G1 X104.845 Y97.207 F15000.000
G1 E2.00000 F4800.000
G1 X104.545 Y97.621 E2.02900 F600.000
G1 X104.845 Y97.921 E2.05310 F600.000
G1 X104.845 Y97.207 F15000.000
G1 X104.545 Y96.906 E2.07720 F600.000
G1 X104.845 Y96.493 E2.10620 F600.000
G1 X104.545 Y96.192 E2.13030 F600.000
G1 X104.845 Y95.778 E2.15931 F600.000
G1 X104.545 Y95.478 E2.18341 F600.000
G1 X104.845 Y95.064 E2.21241 F600.000
G1 X104.545 Y94.763 E2.23651 F600.000
G1 X104.845 Y94.349 E2.26551 F600.000
G1 X104.545 Y94.049 E2.28961 F600.000
G1 X104.845 Y93.635 E2.31861 F600.000
G1 X104.545 Y93.335 E2.34271 F600.000
G1 X104.845 Y92.921 E2.37171 F600.000
G1 X104.545 Y92.620 E2.39581 F600.000
G1 X104.845 Y92.206 E2.42482 F600.000
G1 X104.545 Y91.906 E2.44891 F600.000
G1 X104.845 Y91.492 E2.47792 F600.000
G1 X104.545 Y91.191 E2.50202 F600.000
G1 X104.845 Y90.777 E2.53102 F600.000
G1 X104.545 Y90.477 E2.55512 F600.000
G1 X104.845 Y90.063 E2.58412 F600.000
G1 X104.545 Y89.763 E2.60822 F600.000
G1 X104.845 Y89.349 E2.63722 F600.000
G1 X104.545 Y89.048 E2.66132 F600.000
G1 X104.845 Y88.634 E2.69033 F600.000
G1 X104.545 Y88.334 E2.71442 F600.000
G1 X104.845 Y87.920 E2.74343 F600.000
G1 X104.545 Y87.619 E2.76753 F600.000
G1 X104.845 Y87.206 E2.79653 F600.000
G1 X104.545 Y86.905 E2.82063 F600.000
G1 X104.845 Y86.491 E2.84963 F600.000
G1 X104.545 Y86.191 E2.87373 F600.000
G1 X104.845 Y85.777 E2.90273 F600.000
G1 X104.545 Y85.476 E2.92683 F600.000
G1 X104.845 Y85.062 E2.95584 F600.000
G1 X104.545 Y84.762 E2.97993 F600.000
G1 X104.845 Y84.348 E3.00894 F600.000
G1 X104.472 Y83.975 E3.03887 F600.000
G1 X104.058 Y84.275 E3.06787 F600.000
G1 X103.758 Y83.975 E3.09197 F600.000
G1 X103.344 Y84.275 E3.12097 F600.000
G1 X103.043 Y83.975 E3.14507 F600.000
G1 X102.629 Y84.275 E3.17407 F600.000
G1 X102.329 Y83.975 E3.19817 F600.000
G1 X101.915 Y84.275 E3.22717 F600.000
G1 X101.614 Y83.975 E3.25127 F600.000
G1 X101.201 Y84.275 E3.28028 F600.000
G1 X100.900 Y83.975 E3.30438 F600.000
G1 X100.486 Y84.275 E3.33338 F600.000
G1 X100.186 Y83.975 E3.35748 F600.000
G1 X99.772 Y84.275 E3.38648 F600.000
G1 X99.471 Y83.975 E3.41058 F600.000
G1 X99.057 Y84.275 E3.43958 F600.000
G1 X98.757 Y83.975 E3.46368 F600.000
G1 X98.343 Y84.275 E3.49268 F600.000
G1 X98.043 Y83.975 E3.51678 F600.000
G1 X97.629 Y84.275 E3.54579 F600.000
G1 X97.328 Y83.975 E3.56989 F600.000
G1 X96.914 Y84.275 E3.59889 F600.000
G1 X96.614 Y83.975 E3.62299 F600.000
G1 X96.200 Y84.275 E3.65199 F600.000
G1 X95.899 Y83.975 E3.67609 F600.000
G1 X95.485 Y84.275 E3.70509 F600.000
G1 X95.185 Y83.975 E3.72919 F600.000
G1 X94.771 Y84.275 E3.75819 F600.000
G1 X94.471 Y83.975 E3.78229 F600.000
G1 X94.057 Y84.275 E3.81130 F600.000
G1 X93.756 Y83.975 E3.83540 F600.000
G1 X93.342 Y84.275 E3.86440 F600.000
G1 X93.042 Y83.975 E3.88850 F600.000
G1 X92.628 Y84.275 E3.91750 F600.000
G1 X92.327 Y83.975 E3.94160 F600.000
G1 X91.914 Y84.275 E3.97060 F600.000
G1 X91.613 Y83.975 E3.99470 F600.000
G1 X91.199 Y84.275 E4.02371 F600.000
G1 X90.899 Y83.975 E4.04780 F600.000
G1 X90.485 Y84.275 E4.07681 F600.000
G1 X90.184 Y83.975 E4.10091 F600.000
G1 X89.770 Y84.275 E4.12991 F600.000
G1 X89.470 Y83.975 E4.15401 F600.000
G1 X89.056 Y84.275 E4.18301 F600.000
G1 X88.755 Y83.975 E4.20711 F600.000
G1 X88.342 Y84.275 E4.23611 F600.000
G1 X88.041 Y83.975 E4.26021 F600.000
G1 X87.627 Y84.275 E4.28922 F600.000
G1 X87.327 Y83.975 E4.31331 F600.000
G1 X86.913 Y84.275 E4.34232 F600.000
G1 X86.612 Y83.975 E4.36642 F600.000
G1 X86.198 Y84.275 E4.39542 F600.000
G1 X85.898 Y83.975 E4.41952 F600.000
G1 X85.484 Y84.275 E4.44852 F600.000
G1 X85.183 Y83.975 E4.47262 F600.000
G1 X84.770 Y84.275 E4.50162 F600.000
G1 X84.469 Y83.975 E4.52572 F600.000
G1 X84.055 Y84.275 E4.55473 F600.000
G1 X83.755 Y83.975 E4.57882 F600.000
G1 X83.341 Y84.275 E4.60783 F600.000
G1 X83.040 Y83.975 E4.63193 F600.000
G1 X82.626 Y84.275 E4.66093 F600.000
G1 X82.326 Y83.975 E4.68503 F600.000
G1 X81.912 Y84.275 E4.71403 F600.000
G1 X81.612 Y83.975 E4.73813 F600.000
G1 X81.198 Y84.275 E4.76713 F600.000
G1 X80.897 Y83.975 E4.79123 F600.000
G1 X80.433 Y84.225 E4.82114 F600.000
G1 X80.483 Y84.275 E4.82519 F600.000
G1 F4800.000 E2.82519
G92 E0
G1 X104.545 Y83.333 F15000.000
G1 E2.00000 F4800.000
G1 X104.845 Y82.919 E2.02900 F600.000
G1 X104.545 Y82.619 E2.05310 F600.000
G1 X104.845 Y82.205 E2.08210 F600.000
G1 X104.545 Y81.904 E2.10620 F600.000
G1 X104.845 Y81.490 E2.13521 F600.000
G1 X104.545 Y81.190 E2.15931 F600.000
G1 X104.845 Y80.776 E2.18831 F600.000
G1 X104.545 Y80.475 E2.21241 F600.000
G1 X104.845 Y80.062 E2.24141 F600.000
G1 X104.545 Y79.761 E2.26551 F600.000
G1 X104.845 Y79.347 E2.29451 F600.000
G1 X104.545 Y79.047 E2.31861 F600.000
G1 X104.845 Y78.633 E2.34761 F600.000
G1 X104.545 Y78.332 E2.37171 F600.000
G1 X104.845 Y77.918 E2.40072 F600.000
G1 X104.545 Y77.618 E2.42482 F600.000
G1 X104.845 Y77.204 E2.45382 F600.000
G1 X104.545 Y76.904 E2.47792 F600.000
G1 X104.845 Y76.490 E2.50692 F600.000
G1 X104.545 Y76.189 E2.53102 F600.000
G1 X104.845 Y75.775 E2.56002 F600.000
G1 X104.795 Y75.725 E2.56407 F600.000
G1 F4800.000 E0.56407
G92 E0
G1 X104.545 Y83.333 F15000.000
G1 E2.00000 F4800.000
G1 X104.845 Y83.634 E2.02410 F600.000
G1 F4800.000 E0.02410
G92 E0
G1 X104.795 Y111.725 F15000.000
G1 E2.00000 F4800.000
G1 X104.845 Y111.775 E2.00406 F600.000
G1 X104.545 Y112.190 E2.03314 F600.000
G1 X104.845 Y112.491 E2.05728 F600.000
G1 X104.545 Y112.905 E2.08636 F600.000
G1 X104.845 Y113.206 E2.11049 F600.000
G1 X104.545 Y113.621 E2.13957 F600.000
G1 X104.845 Y113.921 E2.16371 F600.000
G1 X104.545 Y114.336 E2.19279 F600.000
G1 X104.845 Y114.636 E2.21692 F600.000
G1 X104.545 Y115.051 E2.24600 F600.000
G1 X104.845 Y115.352 E2.27014 F600.000
G1 X104.503 Y115.725 F15000.000
G1 X104.845 Y116.067 E2.29763 F600.000
