; generated by Slic3r 1.0.0RC2 on 2014-04-12 at 16:37:22

; layer_height = 0.3
; perimeters = 2
; top_solid_layers = 3
; bottom_solid_layers = 2
; fill_density = 0.15
; perimeter_speed = 32
; infill_speed = 50
; travel_speed = 250
; nozzle_diameter = 0.5
; filament_diameter = 1.75
; extrusion_multiplier = 0.9
; perimeters extrusion width = 0.50mm
; infill extrusion width = 0.50mm
; solid infill extrusion width = 0.50mm
; top infill extrusion width = 0.50mm
; first layer extrusion width = 0.50mm

G21 ; set units to millimeters
M107
M190 S105 ; wait for bed temperature to be reached
M104 S240 ; set temperature
G28 X0 Y0
G28 Z0
G1 Z0.3 F200
G1 X15 Y20 F12000
M109 S240 ; wait for temperature to be reached
G90 ; use absolute coordinates
G92 E0
M82 ; use absolute distances for extrusion
G1 F4800.000 E-2.00000
G92 E0
G1 Z0.300 F15000.000
G1 X46.190 Y32.616 F15000.000
G1 E2.00000 F4800.000
G1 X46.610 Y32.096 E2.03752 F960.000
G1 X47.310 Y31.316 E2.09634
G1 X47.810 Y30.816 E2.13603
G1 X48.360 Y30.376 E2.17556
G1 X49.210 Y29.766 E2.23428
G1 X49.750 Y29.416 E2.27040
G1 X50.320 Y29.126 E2.30629
G1 X51.270 Y28.696 E2.36482
G1 X51.940 Y28.436 E2.40516
G1 X52.640 Y28.246 E2.44587
G1 X53.660 Y28.036 E2.50432
G1 X54.310 Y27.936 E2.54123
G1 X54.970 Y27.906 E2.57831
G1 X56.020 Y27.906 E2.63724
G1 X56.680 Y27.936 E2.67433
G1 X57.330 Y28.036 E2.71124
G1 X58.350 Y28.246 E2.76969
G1 X59.040 Y28.426 E2.80971
G1 X59.700 Y28.686 E2.84952
G1 X60.660 Y29.116 E2.90856
G1 X61.250 Y29.416 E2.94571
G1 X166.250 Y90.036 E9.75064
G1 X166.820 Y90.406 E9.78878
G1 X167.660 Y91.016 E9.84704
G1 X168.190 Y91.446 E9.88535
G1 X168.680 Y91.936 E9.92424
G1 X169.380 Y92.716 E9.98307
G1 X169.810 Y93.256 E10.02181
G1 X170.180 Y93.836 E10.06042
G1 X170.700 Y94.746 E10.11925
G1 X170.990 Y95.316 E10.15514
G1 X171.230 Y95.906 E10.19089
G1 X171.560 Y96.896 E10.24947
G1 X171.740 Y97.576 E10.28895
G1 X171.850 Y98.276 E10.32872
G1 X171.960 Y99.316 E10.38741
G1 X172.000 Y99.996 E10.42565
G1 X171.960 Y100.676 E10.46388
G1 X171.850 Y101.716 E10.52257
G1 X171.740 Y102.416 E10.56235
G1 X171.560 Y103.096 E10.60183
G1 X171.230 Y104.086 E10.66040
G1 X170.990 Y104.676 E10.69615
G1 X170.700 Y105.246 E10.73204
G1 X170.180 Y106.156 E10.79087
G1 X169.810 Y106.736 E10.82948
G1 X169.380 Y107.276 E10.86822
G1 X168.680 Y108.056 E10.92705
G1 X168.180 Y108.556 E10.96673
G1 X167.630 Y108.996 E11.00627
G1 X166.780 Y109.606 E11.06499
G1 X166.240 Y109.956 E11.10111
G1 X61.250 Y170.576 E17.90554
G1 X60.660 Y170.876 E17.94269
G1 X59.700 Y171.306 E18.00173
G1 X59.040 Y171.566 E18.04155
G1 X58.350 Y171.746 E18.08157
G1 X57.330 Y171.956 E18.14002
G1 X56.680 Y172.056 E18.17693
G1 X56.020 Y172.086 E18.21401
G1 X54.970 Y172.086 E18.27295
G1 X54.310 Y172.056 E18.31003
G1 X53.660 Y171.956 E18.34694
G1 X52.640 Y171.746 E18.40539
G1 X51.950 Y171.566 E18.44541
G1 X51.290 Y171.306 E18.48523
G1 X50.330 Y170.876 E18.54427
G1 X49.730 Y170.576 E18.58192
G1 X49.170 Y170.206 E18.61959
G1 X48.330 Y169.596 E18.67785
G1 X47.800 Y169.166 E18.71616
G1 X47.310 Y168.676 E18.75505
G1 X46.610 Y167.896 E18.81388
G1 X46.180 Y167.356 E18.85262
G1 X45.810 Y166.776 E18.89123
G1 X45.290 Y165.866 E18.95006
G1 X45.000 Y165.296 E18.98595
G1 X44.760 Y164.706 E19.02170
G1 X44.430 Y163.716 E19.08027
G1 X44.240 Y163.006 E19.12153
G1 X44.130 Y162.276 E19.16296
G1 X44.030 Y161.236 E19.22160
G1 X44.000 Y160.616 E19.25644
G1 X44.000 Y39.376 E26.06122
G1 X44.030 Y38.756 E26.09605
G1 X44.130 Y37.716 E26.15470
G1 X44.240 Y36.996 E26.19558
G1 X44.430 Y36.296 E26.23629
G1 X44.760 Y35.296 E26.29539
G1 X45.000 Y34.676 E26.33270
G1 X45.300 Y34.086 E26.36985
G1 X45.820 Y33.186 E26.42819
G1 X46.149 Y32.679 E26.46212
G1 F4800.000 E24.46212
G92 E0
G1 X53.676 Y38.053 F15000.000
G1 E2.00000 F4800.000
G1 X53.992 Y37.703 E2.02645 F960.000
G1 X54.373 Y37.426 E2.05289
G1 X54.803 Y37.234 E2.07934
G1 X55.264 Y37.136 E2.10579
G1 X55.736 Y37.136 E2.13224
G1 X56.197 Y37.234 E2.15869
G1 X56.627 Y37.426 E2.18514
G1 X57.008 Y37.703 E2.21159
G1 X57.289 Y38.015 E2.23517
G1 X85.768 Y74.789 E4.84570
G1 X86.648 Y76.313 E4.94450
G1 X87.201 Y78.014 E5.04487
G1 X87.387 Y79.793 E5.14524
G1 X87.201 Y81.571 E5.24561
G1 X86.648 Y83.272 E5.34598
G1 X85.754 Y84.821 E5.44636
G1 X84.557 Y86.150 E5.54673
G1 X83.110 Y87.201 E5.64710
G1 X81.477 Y87.928 E5.74747
G1 X79.728 Y88.300 E5.84784
G1 X77.939 Y88.300 E5.94821
G1 X76.190 Y87.928 E6.04858
G1 X74.556 Y87.201 E6.14895
G1 X73.109 Y86.150 E6.24932
G1 X71.913 Y84.821 E6.34969
G1 X71.033 Y83.296 E6.44849
G1 X53.425 Y40.246 E9.05902
G1 X53.295 Y39.847 E9.08260
G1 X53.246 Y39.378 E9.10905
G1 X53.295 Y38.910 E9.13550
G1 X53.441 Y38.461 E9.16195
G1 X53.639 Y38.118 E9.18419
G1 X54.083 Y38.349 F15000.000
G1 X54.328 Y38.077 E9.20474 F780.000
G1 X54.624 Y37.862 E9.22529
G1 X54.959 Y37.713 E9.24584
G1 X55.317 Y37.636 E9.26639
G1 X55.683 Y37.636 E9.28694
G1 X56.041 Y37.713 E9.30749
G1 X56.376 Y37.862 E9.32804
G1 X56.672 Y38.077 E9.34859
G1 X56.905 Y38.336 E9.36818
G1 X85.352 Y75.068 E11.97576
G1 X86.189 Y76.518 E12.06971
G1 X86.709 Y78.119 E12.16418
G1 X86.885 Y79.793 E12.25865
G1 X86.709 Y81.467 E12.35313
G1 X86.189 Y83.068 E12.44760
G1 X85.347 Y84.525 E12.54207
G1 X84.221 Y85.776 E12.63655
G1 X82.859 Y86.765 E12.73102
G1 X81.321 Y87.450 E12.82549
G1 X79.675 Y87.800 E12.91996
G1 X77.992 Y87.800 E13.01443
G1 X76.345 Y87.450 E13.10890
G1 X74.808 Y86.765 E13.20338
G1 X73.446 Y85.776 E13.29785
G1 X72.320 Y84.525 E13.39232
G1 X71.483 Y83.076 E13.48627
G1 X53.895 Y40.074 E16.09385
G1 X53.787 Y39.742 E16.11344
G1 X53.749 Y39.378 E16.13400
G1 X53.787 Y39.014 E16.15454
G1 X53.900 Y38.666 E16.17509
G1 X54.046 Y38.414 E16.19144
G1 X53.946 Y38.009 F15000.000
G1 F4800.000 E14.19144
G92 E0
G1 X82.750 Y93.100 F15000.000
G1 E2.00000 F4800.000
G1 X98.250 Y93.100 E2.86996 F960.000
G1 X98.250 Y106.900 E3.64451
G1 X82.750 Y106.900 E4.51447
G1 X82.750 Y93.175 E5.28480
G1 X83.250 Y93.600 F15000.000
G1 X97.750 Y93.600 E6.09864 F780.000
G1 X97.750 Y106.400 E6.81706
G1 X83.250 Y106.400 E7.63089
G1 X83.250 Y93.675 E8.34510
G1 X83.250 Y93.100 F15000.000
G1 F4800.000 E6.34510
G92 E0
G1 X105.466 Y98.221 F15000.000
G1 E2.00000 F4800.000
G1 X106.019 Y96.521 E2.10037 F960.000
G1 X106.812 Y95.146 E2.18945
G1 X106.913 Y94.972 E2.20074
G1 X108.109 Y93.643 E2.30111
G1 X109.556 Y92.592 E2.40148
G1 X111.190 Y91.865 E2.50185
G1 X113.709 Y91.329 E2.64638
G1 X113.709 Y91.493 E2.65556
G1 X114.700 Y91.493 E2.71117
G1 X160.786 Y97.769 E5.32169
G1 X161.197 Y97.856 E5.34528
G1 X161.627 Y98.048 E5.37173
G1 X162.008 Y98.325 E5.39818
G1 X162.324 Y98.675 E5.42463
G1 X162.559 Y99.083 E5.45107
G1 X162.705 Y99.531 E5.47752
G1 X162.754 Y100.000 E5.50397
G1 X162.705 Y100.469 E5.53042
G1 X162.559 Y100.917 E5.55687
G1 X162.324 Y101.325 E5.58332
G1 X162.008 Y101.675 E5.60977
G1 X161.627 Y101.952 E5.63622
G1 X161.197 Y102.144 E5.66267
G1 X160.786 Y102.231 E5.68625
G1 X114.700 Y108.507 E8.29677
G1 X112.939 Y108.507 E8.39557
G1 X111.190 Y108.135 E8.49594
G1 X109.556 Y107.408 E8.59632
G1 X108.109 Y106.357 E8.69669
G1 X106.913 Y105.028 E8.79706
G1 X106.019 Y103.479 E8.89743
G1 X105.466 Y101.779 E8.99780
G1 X105.279 Y100.000 E9.09817
G1 X105.458 Y98.296 E9.19433
G1 X105.958 Y98.326 F15000.000
G1 X106.478 Y96.725 E9.28881 F780.000
G1 X107.245 Y95.396 E9.37494
G1 X107.320 Y95.268 E9.38328
G1 X108.446 Y94.017 E9.47775
G1 X109.808 Y93.027 E9.57222
G1 X111.345 Y92.343 E9.66669
G1 X113.209 Y91.947 E9.77361
G1 X113.209 Y91.993 E9.77620
G1 X114.666 Y91.993 E9.85797
G1 X160.700 Y98.262 E12.46555
G1 X161.041 Y98.334 E12.48515
G1 X161.376 Y98.483 E12.50570
G1 X161.672 Y98.698 E12.52625
G1 X161.917 Y98.971 E12.54680
G1 X162.100 Y99.288 E12.56735
G1 X162.213 Y99.636 E12.58790
G1 X162.251 Y100.000 E12.60845
G1 X162.213 Y100.364 E12.62900
G1 X162.100 Y100.712 E12.64955
G1 X161.917 Y101.029 E12.67010
G1 X161.672 Y101.302 E12.69065
G1 X161.376 Y101.517 E12.71120
G1 X161.041 Y101.666 E12.73175
G1 X160.700 Y101.738 E12.75134
G1 X114.666 Y108.007 E15.35892
G1 X112.992 Y108.007 E15.45287
G1 X111.345 Y107.657 E15.54734
G1 X109.808 Y106.973 E15.64182
G1 X108.446 Y105.983 E15.73629
G1 X107.320 Y104.732 E15.83076
G1 X106.478 Y103.275 E15.92523
G1 X105.958 Y101.674 E16.01970
G1 X105.782 Y100.000 E16.11417
G1 X105.950 Y98.401 E16.20444
G1 X105.598 Y97.979 F15000.000
G1 F4800.000 E14.20444
G92 E0
G1 X85.754 Y115.179 F15000.000
G1 E2.00000 F4800.000
G1 X86.648 Y116.728 E2.10037 F960.000
G1 X87.201 Y118.429 E2.20074
G1 X87.387 Y120.207 E2.30112
G1 X87.201 Y121.986 E2.40149
G1 X86.648 Y123.687 E2.50186
G1 X85.768 Y125.211 E2.60066
G1 X57.289 Y161.985 E5.21118
G1 X57.008 Y162.297 E5.23477
G1 X56.627 Y162.574 E5.26121
G1 X56.197 Y162.766 E5.28766
G1 X55.736 Y162.864 E5.31411
G1 X55.264 Y162.864 E5.34056
G1 X54.803 Y162.766 E5.36701
G1 X54.373 Y162.574 E5.39346
G1 X53.992 Y162.297 E5.41991
G1 X53.676 Y161.947 E5.44636
G1 X53.441 Y161.539 E5.47281
G1 X53.295 Y161.090 E5.49926
G1 X53.246 Y160.622 E5.52570
G1 X53.295 Y160.153 E5.55216
G1 X53.425 Y159.753 E5.57574
G1 X71.033 Y116.704 E8.18626
G1 X71.913 Y115.179 E8.28506
G1 X73.109 Y113.850 E8.38544
G1 X74.556 Y112.799 E8.48580
G1 X76.190 Y112.072 E8.58618
G1 X77.939 Y111.700 E8.68655
G1 X79.728 Y111.700 E8.78692
G1 X81.477 Y112.072 E8.88729
G1 X83.401 Y112.929 E9.00553
G1 X83.401 Y113.010 E9.01012
G1 X84.557 Y113.850 E9.09031
G1 X85.704 Y115.123 E9.18647
G1 X85.347 Y115.475 F15000.000
G1 X86.189 Y116.932 E9.28095 F780.000
G1 X86.709 Y118.533 E9.37542
G1 X86.885 Y120.207 E9.46989
G1 X86.709 Y121.881 E9.56437
G1 X86.189 Y123.482 E9.65884
G1 X85.352 Y124.932 E9.75278
G1 X56.905 Y161.664 E12.36037
G1 X56.672 Y161.923 E12.37996
G1 X56.376 Y162.138 E12.40051
G1 X56.041 Y162.287 E12.42106
G1 X55.683 Y162.364 E12.44161
G1 X55.317 Y162.364 E12.46216
G1 X54.959 Y162.287 E12.48271
G1 X54.624 Y162.138 E12.50326
G1 X54.328 Y161.923 E12.52381
G1 X54.083 Y161.651 E12.54436
G1 X53.900 Y161.334 E12.56491
G1 X53.787 Y160.986 E12.58546
G1 X53.749 Y160.622 E12.60601
G1 X53.787 Y160.258 E12.62656
G1 X53.895 Y159.926 E12.64616
G1 X71.483 Y116.924 E15.25374
G1 X72.320 Y115.475 E15.34769
G1 X73.446 Y114.224 E15.44216
G1 X74.808 Y113.235 E15.53663
G1 X76.345 Y112.550 E15.63110
G1 X77.992 Y112.200 E15.72557
G1 X79.675 Y112.200 E15.82005
G1 X81.321 Y112.550 E15.91452
G1 X82.901 Y113.253 E16.01158
G1 X84.221 Y114.224 E16.10352
G1 X85.297 Y115.419 E16.19378
G1 X85.846 Y115.440 F15000.000
G1 F4800.000 E14.19378
G92 E0
G1 X94.129 Y115.670 F15000.000
G1 E2.00000 F4800.000
G1 X58.964 Y163.085 E5.31325 F960.000
G1 X58.341 Y163.777 E5.36550
G1 X57.623 Y164.299 E5.41532
G1 X56.812 Y164.660 E5.46514
G1 X55.944 Y164.844 E5.51496
G1 X55.056 Y164.844 E5.56477
G1 X54.188 Y164.660 E5.61460
G1 X53.377 Y164.299 E5.66442
G1 X52.659 Y163.777 E5.71424
G1 X52.065 Y163.117 E5.76406
G1 X51.621 Y162.349 E5.81387
G1 X51.347 Y161.505 E5.86370
G1 X51.254 Y160.622 E5.91351
G1 X51.347 Y159.739 E5.96333
G1 X51.635 Y158.854 E6.01558
G1 X77.149 Y100.000 E9.61588
G1 X51.635 Y41.146 E13.21619
G1 X51.347 Y40.261 E13.26844
G1 X51.254 Y39.378 E13.31826
G1 X51.347 Y38.495 E13.36807
G1 X51.621 Y37.651 E13.41790
G1 X52.065 Y36.883 E13.46771
G1 X52.659 Y36.223 E13.51753
G1 X53.377 Y35.701 E13.56735
G1 X54.188 Y35.340 E13.61717
G1 X55.056 Y35.156 E13.66699
G1 X55.944 Y35.156 E13.71681
G1 X56.812 Y35.340 E13.76663
G1 X57.623 Y35.701 E13.81645
G1 X58.341 Y36.223 E13.86627
G1 X58.964 Y36.915 E13.91851
G1 X97.175 Y88.438 E17.51882
G1 X160.902 Y95.768 E21.11913
G1 X161.812 Y95.962 E21.17137
G1 X162.623 Y96.323 E21.22119
G1 X163.341 Y96.845 E21.27102
G1 X163.935 Y97.504 E21.32083
G1 X164.379 Y98.273 E21.37065
G1 X164.653 Y99.117 E21.42047
G1 X164.746 Y100.000 E21.47029
G1 X164.653 Y100.883 E21.52011
G1 X164.379 Y101.727 E21.56993
G1 X163.935 Y102.496 E21.61975
G1 X163.341 Y103.155 E21.66957
G1 X162.623 Y103.677 E21.71939
G1 X161.812 Y104.038 E21.76921
G1 X160.902 Y104.232 E21.82145
G1 X97.175 Y111.562 E25.42176
G1 X94.174 Y115.610 E25.70460
G1 X94.530 Y115.968 F15000.000
G1 X59.351 Y163.402 E29.01919 F780.000
G1 X58.677 Y164.151 E29.07571
G1 X57.874 Y164.734 E29.13144
G1 X56.967 Y165.138 E29.18715
G1 X55.996 Y165.344 E29.24288
G1 X55.004 Y165.344 E29.29859
G1 X54.033 Y165.138 E29.35431
G1 X53.126 Y164.734 E29.41003
G1 X52.323 Y164.151 E29.46575
G1 X51.658 Y163.413 E29.52147
G1 X51.162 Y162.553 E29.57718
G1 X50.855 Y161.609 E29.63291
G1 X50.751 Y160.622 E29.68862
G1 X50.855 Y159.634 E29.74434
G1 X51.166 Y158.677 E29.80087
G1 X76.604 Y100.000 E33.39034
G1 X51.166 Y41.323 E36.97981
G1 X50.855 Y40.366 E37.03634
G1 X50.751 Y39.378 E37.09206
G1 X50.855 Y38.391 E37.14778
G1 X51.162 Y37.447 E37.20350
G1 X51.658 Y36.587 E37.25921
G1 X52.323 Y35.849 E37.31493
G1 X53.126 Y35.266 E37.37065
G1 X54.033 Y34.862 E37.42637
G1 X55.004 Y34.656 E37.48209
G1 X55.996 Y34.656 E37.53781
G1 X56.967 Y34.862 E37.59353
G1 X57.874 Y35.266 E37.64925
G1 X58.677 Y35.849 E37.70497
G1 X59.351 Y36.598 E37.76149
G1 X97.448 Y87.966 E41.35097
G1 X160.982 Y95.274 E44.94044
G1 X161.967 Y95.484 E44.99697
G1 X162.874 Y95.888 E45.05269
G1 X163.677 Y96.471 E45.10841
G1 X164.342 Y97.209 E45.16412
G1 X164.838 Y98.069 E45.21984
G1 X165.145 Y99.013 E45.27556
G1 X165.249 Y100.000 E45.33128
G1 X165.145 Y100.987 E45.38700
G1 X164.838 Y101.931 E45.44272
G1 X164.342 Y102.791 E45.49843
G1 X163.677 Y103.529 E45.55415
G1 X162.874 Y104.112 E45.60987
G1 X161.967 Y104.516 E45.66559
G1 X160.982 Y104.726 E45.72212
G1 X97.448 Y112.034 E49.31159
G1 X94.575 Y115.908 E49.58227
G1 X94.034 Y115.911 F15000.000
G1 F4800.000 E47.58227
G92 E0
G1 X73.114 Y143.020 F15000.000
G1 E2.00000 F4800.000
G1 X72.965 Y142.871 E2.01193 F1200.000
G1 X72.402 Y143.021 E2.04499
G1 X72.810 Y143.430 E2.07773
G1 X72.506 Y143.840 E2.10666
G1 X72.090 Y143.424 E2.14000
G1 X71.779 Y143.826 E2.16885
G1 X72.202 Y144.250 E2.20280
G1 X71.467 Y144.228 F15000.000
G1 X71.898 Y144.660 E2.23736 F1200.000
G1 X71.594 Y145.069 E2.26628
G1 X71.155 Y144.631 E2.30145
G1 X70.844 Y145.033 E2.33029
G1 X71.290 Y145.479 E2.36607
G1 X70.986 Y145.889 E2.39499
G1 X70.532 Y145.435 E2.43138
G1 X70.220 Y145.838 E2.46022
G1 X70.682 Y146.299 E2.49721
G1 X70.378 Y146.709 E2.52613
G1 X69.909 Y146.240 E2.56373
G1 X69.597 Y146.643 E2.59257
G1 X70.074 Y147.119 E2.63077
G1 X69.770 Y147.529 E2.65970
G1 X69.286 Y147.045 E2.69851
G1 X68.974 Y147.447 E2.72735
G1 X69.466 Y147.939 E2.76677
G1 X69.162 Y148.349 E2.79569
G1 X68.662 Y147.850 E2.83572
G1 X68.351 Y148.252 E2.86456
G1 X68.858 Y148.759 E2.90519
G1 X68.554 Y149.169 E2.93411
G1 X68.039 Y148.655 E2.97535
G1 X67.728 Y149.057 E3.00419
G1 X68.250 Y149.579 E3.04604
G1 X67.946 Y149.989 E3.07496
G1 X67.416 Y149.459 E3.11742
G1 X67.104 Y149.862 E3.14626
G1 X67.642 Y150.399 E3.18932
G1 X67.337 Y150.809 E3.21824
G1 X66.793 Y150.264 E3.26191
G1 X66.481 Y150.666 E3.29075
G1 X67.033 Y151.219 E3.33502
G1 X66.729 Y151.629 E3.36395
G1 X66.169 Y151.069 E3.40883
G1 X65.858 Y151.471 E3.43767
G1 X66.425 Y152.039 E3.48316
G1 X66.121 Y152.449 E3.51208
G1 X65.546 Y151.874 E3.55818
G1 X65.235 Y152.276 E3.58702
G1 X65.817 Y152.859 E3.63372
G1 X65.513 Y153.269 E3.66265
G1 X64.923 Y152.678 E3.70995
G1 X64.611 Y153.081 E3.73880
G1 X65.209 Y153.679 E3.78671
G1 X64.905 Y154.089 E3.81564
G1 X64.300 Y153.483 E3.86416
G1 X63.988 Y153.886 E3.89300
G1 X64.601 Y154.499 E3.94213
G1 X64.297 Y154.908 E3.97105
G1 X63.677 Y154.288 E4.02079
G1 X63.365 Y154.690 E4.04963
G1 X63.993 Y155.318 E4.09997
G1 X63.689 Y155.728 E4.12890
G1 X63.053 Y155.093 E4.17985
G1 X62.742 Y155.495 E4.20869
G1 X63.385 Y156.138 E4.26025
G1 X63.081 Y156.548 E4.28918
G1 X62.430 Y155.897 E4.34134
G1 X62.118 Y156.300 E4.37018
G1 X62.777 Y156.958 E4.42295
G1 X62.473 Y157.368 E4.45188
G1 X61.807 Y156.702 E4.50526
G1 X61.495 Y157.105 E4.53410
G1 X62.169 Y157.778 E4.58808
G1 X61.865 Y158.188 E4.61701
G1 X61.184 Y157.507 E4.67160
G1 X60.872 Y157.909 E4.70044
G1 X61.561 Y158.598 E4.75564
G1 X61.257 Y159.008 E4.78457
G1 X60.560 Y158.312 E4.84037
G1 X60.249 Y158.714 E4.86922
G1 X60.953 Y159.418 E4.92563
G1 X60.649 Y159.828 E4.95455
G1 X59.937 Y159.117 E5.01157
G1 X59.626 Y159.519 E5.04042
G1 X60.345 Y160.238 E5.09804
G1 X60.040 Y160.648 E5.12697
G1 X59.314 Y159.921 E5.18520
