; generated by Slic3r 1.0.0RC2 on 2014-04-13 at 11:08:23

; layer_height = 0.3
; perimeters = 2
; top_solid_layers = 3
; bottom_solid_layers = 2
; fill_density = 0.15
; perimeter_speed = 32
; infill_speed = 50
; travel_speed = 250
; nozzle_diameter = 0.5
; filament_diameter = 1.75
; extrusion_multiplier = 0.9
; perimeters extrusion width = 0.50mm
; infill extrusion width = 0.50mm
; solid infill extrusion width = 0.50mm
; top infill extrusion width = 0.50mm
; support material extrusion width = 0.26mm
; first layer extrusion width = 0.50mm

G21 ; set units to millimeters
M107
M190 S105 ; wait for bed temperature to be reached
M104 S240 ; set temperature
G28 X0 Y0
G28 Z0
G1 Z0.3 F200
G1 X15 Y20 F12000
M109 S240 ; wait for temperature to be reached
G90 ; use absolute coordinates
G92 E0
M82 ; use absolute distances for extrusion
G1 F4800.000 E-2.00000
G92 E0
G1 Z0.300 F15000.000
G1 X64.607 Y99.244 F15000.000
G1 E2.00000 F4800.000
G1 X135.457 Y39.714 E7.19391 F960.000
G1 X136.597 Y38.944 E7.27112
G1 X137.877 Y38.434 E7.34846
G1 X139.227 Y38.204 E7.42532
G1 X140.607 Y38.264 E7.50285
G1 X141.937 Y38.614 E7.58004
G1 X143.167 Y39.234 E7.65735
G1 X144.237 Y40.094 E7.73440
G1 X168.207 Y64.064 E9.63701
G1 X169.067 Y65.134 E9.71406
G1 X169.687 Y66.364 E9.79137
G1 X170.037 Y67.694 E9.86856
G1 X170.097 Y69.064 E9.94553
G1 X169.867 Y70.424 E10.02294
G1 X169.357 Y71.694 E10.09976
G1 X168.587 Y72.834 E10.17697
G1 X109.477 Y143.394 E15.34326
G1 X109.097 Y143.824 E15.37547
G1 X107.097 Y145.824 E15.53422
G1 X106.207 Y146.564 E15.59918
G1 X105.207 Y147.134 E15.66378
G1 X82.487 Y157.544 E17.06646
G1 X81.827 Y157.804 E17.10627
G1 X81.157 Y157.984 E17.14521
G1 X78.437 Y158.574 E17.30143
G1 X77.747 Y158.684 E17.34064
G1 X77.057 Y158.724 E17.37944
G1 X76.377 Y158.724 E17.41760
G1 X75.127 Y158.604 E17.48808
G1 X73.917 Y158.244 E17.55894
G1 X72.807 Y157.654 E17.62949
G1 X71.827 Y156.864 E17.70014
G1 X51.307 Y136.754 E19.31272
G1 X48.397 Y133.754 E19.54730
G1 X47.657 Y132.834 E19.61357
G1 X47.097 Y131.794 E19.67987
G1 X46.667 Y130.794 E19.74096
G1 X46.277 Y129.584 E19.81232
G1 X46.137 Y128.324 E19.88347
G1 X46.247 Y127.054 E19.95502
G1 X46.587 Y125.834 E20.02610
G1 X47.167 Y124.704 E20.09739
G1 X61.317 Y102.704 E21.56553
G1 X61.727 Y102.144 E21.60448
G1 X62.187 Y101.624 E21.64345
G1 X64.187 Y99.624 E21.80220
G1 X64.552 Y99.294 E21.82978
G1 F4800.000 E19.82978
G92 E0
G1 X95.449 Y132.368 F15000.000
G1 E2.00000 F4800.000
G1 X160.856 Y66.960 E7.19170 F960.000
G1 X162.553 Y68.657 E7.32640
G1 X97.146 Y134.065 E12.51810
G1 X95.502 Y132.421 E12.64860
G1 F4800.000 E10.64860
G92 E0
G1 X86.539 Y123.458 F15000.000
G1 E2.00000 F4800.000
G1 X84.842 Y121.761 E2.13470 F960.000
G1 X150.250 Y56.354 E7.32640
G1 X151.947 Y58.051 E7.46111
G1 X86.592 Y123.405 E12.64860
G1 F4800.000 E10.64860
G92 E0
G1 X75.933 Y112.852 F15000.000
G1 E2.00000 F4800.000
G1 X74.236 Y111.155 E2.13470 F960.000
G1 X139.643 Y45.747 E7.32640
G1 X141.340 Y47.444 E7.46111
G1 X75.986 Y112.799 E12.64860
G1 X76.498 Y112.993 F15000.000
G1 X84.701 Y121.196 E13.29966 F780.000
G1 X150.250 Y55.647 E18.50259
G1 X152.654 Y58.051 E18.69342
G1 X87.105 Y123.600 E23.89634
G1 X95.307 Y131.802 E24.54741
G1 X160.856 Y66.253 E29.75033
G1 X163.260 Y68.657 E29.94116
G1 X97.712 Y134.206 E35.14409
G1 X103.439 Y139.934 E35.59871
G1 X102.873 Y140.500 E35.64361
G1 X96.722 Y134.348 E36.13191
G1 X79.783 Y151.286 E37.47641
G1 X79.217 Y150.721 E37.52131
G1 X96.156 Y133.782 E38.86581
G1 X74.589 Y112.215 E40.57767
G1 X57.651 Y129.154 E41.92217
G1 X57.085 Y128.588 E41.96707
G1 X74.024 Y111.650 E43.31157
G1 X67.872 Y105.498 E43.79987
G1 X68.437 Y104.932 E43.84477
G1 X74.094 Y110.589 E44.29378
G1 X139.643 Y45.040 E49.49670
G1 X142.047 Y47.444 E49.68753
G1 X76.551 Y112.940 E54.88625
G1 X76.145 Y113.347 F15000.000
G1 F4800.000 E52.88625
G92 E0
G1 X97.146 Y133.552 F15000.000
G1 E2.00000 F4800.000
G1 X95.961 Y132.368 E2.09430 F1200.000
G1 X96.316 Y132.013 E2.12253
G1 X97.501 Y133.198 E2.21683
G1 X97.855 Y132.843 E2.24506
G1 X96.671 Y131.659 E2.33935
G1 X97.025 Y131.304 E2.36759
G1 X98.210 Y132.488 E2.46188
G1 X98.564 Y132.134 E2.49012
G1 X97.380 Y130.949 E2.58441
G1 X97.735 Y130.595 E2.61264
G1 X98.919 Y131.779 E2.70694
G1 X99.274 Y131.425 E2.73517
G1 X98.089 Y130.240 E2.82947
G1 X98.444 Y129.886 E2.85770
G1 X99.628 Y131.070 E2.95200
G1 X99.983 Y130.715 E2.98023
G1 X98.798 Y129.531 E3.07453
G1 X99.153 Y129.176 E3.10276
G1 X100.337 Y130.361 E3.19706
G1 X100.692 Y130.006 E3.22529
G1 X99.508 Y128.822 E3.31959
G1 X99.862 Y128.467 E3.34782
G1 X101.047 Y129.651 E3.44211
G1 X101.401 Y129.297 E3.47035
G1 X100.217 Y128.112 E3.56464
G1 X100.571 Y127.758 E3.59288
G1 X101.756 Y128.942 E3.68717
G1 X102.111 Y128.588 E3.71540
G1 X100.926 Y127.403 E3.80970
G1 X101.281 Y127.049 E3.83793
G1 X102.465 Y128.233 E3.93223
G1 X102.820 Y127.878 E3.96046
G1 X101.635 Y126.694 E4.05476
G1 X101.990 Y126.339 E4.08299
G1 X103.174 Y127.524 E4.17729
G1 X103.529 Y127.169 E4.20552
G1 X102.345 Y125.985 E4.29982
G1 X102.699 Y125.630 E4.32805
G1 X103.884 Y126.815 E4.42235
G1 X104.238 Y126.460 E4.45058
G1 X103.054 Y125.275 E4.54487
G1 X103.408 Y124.921 E4.57311
G1 X104.593 Y126.105 E4.66740
G1 X104.947 Y125.751 E4.69564
G1 X103.763 Y124.566 E4.78993
G1 X104.118 Y124.212 E4.81816
G1 X105.302 Y125.396 E4.91246
G1 X105.657 Y125.041 E4.94069
G1 X104.472 Y123.857 E5.03499
G1 X104.827 Y123.502 E5.06322
G1 X106.011 Y124.687 E5.15752
G1 X106.366 Y124.332 E5.18575
G1 X105.181 Y123.148 E5.28005
G1 X105.536 Y122.793 E5.30828
G1 X106.721 Y123.978 E5.40258
G1 X107.075 Y123.623 E5.43081
G1 X105.891 Y122.439 E5.52511
G1 X106.245 Y122.084 E5.55334
G1 X107.430 Y123.268 E5.64763
G1 X107.784 Y122.914 E5.67587
G1 X106.600 Y121.729 E5.77016
G1 X106.955 Y121.375 E5.79840
G1 X108.139 Y122.559 E5.89269
G1 X108.494 Y122.205 E5.92092
G1 X107.309 Y121.020 E6.01522
G1 X107.664 Y120.665 E6.04345
G1 X108.848 Y121.850 E6.13775
G1 X109.203 Y121.495 E6.16598
G1 X108.018 Y120.311 E6.26028
G1 X108.373 Y119.956 E6.28851
G1 X109.557 Y121.141 E6.38281
G1 X109.912 Y120.786 E6.41104
G1 X108.728 Y119.602 E6.50534
G1 X109.082 Y119.247 E6.53357
G1 X110.267 Y120.431 E6.62787
G1 X110.621 Y120.077 E6.65610
G1 X109.437 Y118.892 E6.75039
G1 X109.792 Y118.538 E6.77863
G1 X110.976 Y119.722 E6.87292
G1 X111.331 Y119.368 E6.90116
G1 X110.146 Y118.183 E6.99545
G1 X110.501 Y117.829 E7.02368
G1 X111.685 Y119.013 E7.11798
G1 X112.040 Y118.658 E7.14621
G1 X110.855 Y117.474 E7.24051
G1 X111.210 Y117.119 E7.26874
G1 X112.394 Y118.304 E7.36304
G1 X112.749 Y117.949 E7.39127
G1 X111.565 Y116.765 E7.48557
G1 X111.919 Y116.410 E7.51380
G1 X113.104 Y117.595 E7.60810
G1 X113.458 Y117.240 E7.63633
G1 X112.274 Y116.055 E7.73063
G1 X112.628 Y115.701 E7.75886
G1 X113.813 Y116.885 E7.85315
G1 X114.167 Y116.531 E7.88139
G1 X112.983 Y115.346 E7.97568
G1 X113.338 Y114.992 E8.00392
G1 X114.522 Y116.176 E8.09821
G1 X114.877 Y115.821 E8.12644
G1 X113.692 Y114.637 E8.22074
G1 X114.047 Y114.282 E8.24897
G1 X115.231 Y115.467 E8.34327
G1 X115.586 Y115.112 E8.37150
G1 X114.402 Y113.928 E8.46580
G1 X114.756 Y113.573 E8.49403
G1 X115.941 Y114.758 E8.58833
G1 X116.295 Y114.403 E8.61656
G1 X115.111 Y113.219 E8.71086
G1 X115.465 Y112.864 E8.73909
G1 X116.650 Y114.048 E8.83339
G1 X117.004 Y113.694 E8.86162
G1 X115.820 Y112.509 E8.95592
G1 X116.175 Y112.155 E8.98415
G1 X117.359 Y113.339 E9.07844
G1 X117.714 Y112.985 E9.10668
G1 X116.529 Y111.800 E9.20097
G1 X116.884 Y111.445 E9.22920
G1 X118.068 Y112.630 E9.32350
G1 X118.423 Y112.275 E9.35173
G1 X117.238 Y111.091 E9.44603
G1 X117.593 Y110.736 E9.47426
G1 X118.777 Y111.921 E9.56856
G1 X119.132 Y111.566 E9.59679
G1 X117.948 Y110.382 E9.69109
G1 X118.302 Y110.027 E9.71932
G1 X119.487 Y111.211 E9.81362
G1 X119.841 Y110.857 E9.84185
G1 X118.657 Y109.672 E9.93615
G1 X119.012 Y109.318 E9.96438
G1 X120.196 Y110.502 E10.05868
G1 X120.551 Y110.148 E10.08691
G1 X119.366 Y108.963 E10.18120
G1 X119.721 Y108.609 E10.20944
G1 X120.905 Y109.793 E10.30373
G1 X121.260 Y109.438 E10.33197
G1 X120.075 Y108.254 E10.42626
G1 X120.430 Y107.899 E10.45449
G1 X121.614 Y109.084 E10.54879
G1 X121.969 Y108.729 E10.57702
G1 X120.785 Y107.545 E10.67132
G1 X121.139 Y107.190 E10.69955
G1 X122.324 Y108.374 E10.79385
G1 X122.678 Y108.020 E10.82208
G1 X121.494 Y106.835 E10.91638
G1 X121.848 Y106.481 E10.94461
G1 X123.033 Y107.665 E11.03891
G1 X123.388 Y107.311 E11.06714
G1 X122.203 Y106.126 E11.16144
G1 X122.558 Y105.772 E11.18967
G1 X123.742 Y106.956 E11.28396
G1 X124.097 Y106.601 E11.31220
G1 X122.912 Y105.417 E11.40649
G1 X123.267 Y105.062 E11.43473
G1 X124.451 Y106.247 E11.52902
G1 X124.806 Y105.892 E11.55725
G1 X123.622 Y104.708 E11.65155
G1 X123.976 Y104.353 E11.67978
G1 X125.161 Y105.538 E11.77408
G1 X125.515 Y105.183 E11.80231
G1 X124.331 Y103.999 E11.89661
G1 X124.685 Y103.644 E11.92484
G1 X125.870 Y104.828 E12.01914
G1 X126.224 Y104.474 E12.04737
G1 X125.040 Y103.289 E12.14167
G1 X125.395 Y102.935 E12.16990
G1 X126.579 Y104.119 E12.26420
G1 X126.934 Y103.764 E12.29243
G1 X125.749 Y102.580 E12.38672
G1 X126.104 Y102.225 E12.41496
G1 X127.288 Y103.410 E12.50925
G1 X127.643 Y103.055 E12.53749
G1 X126.458 Y101.871 E12.63178
G1 X126.813 Y101.516 E12.66001
G1 X127.998 Y102.701 E12.75431
G1 X128.352 Y102.346 E12.78254
G1 X127.168 Y101.162 E12.87684
G1 X127.522 Y100.807 E12.90507
G1 X128.707 Y101.991 E12.99937
G1 X129.061 Y101.637 E13.02760
G1 X127.877 Y100.452 E13.12190
G1 X128.232 Y100.098 E13.15013
G1 X129.416 Y101.282 E13.24443
G1 X129.771 Y100.928 E13.27266
G1 X128.586 Y99.743 E13.36696
G1 X128.941 Y99.389 E13.39519
G1 X130.125 Y100.573 E13.48948
G1 X130.480 Y100.218 E13.51772
G1 X129.295 Y99.034 E13.61201
G1 X129.650 Y98.679 E13.64025
G1 X130.834 Y99.864 E13.73454
G1 X131.189 Y99.509 E13.76277
G1 X130.005 Y98.325 E13.85707
G1 X130.359 Y97.970 E13.88530
G1 X131.544 Y99.154 E13.97960
G1 X131.898 Y98.800 E14.00783
G1 X130.714 Y97.615 E14.10213
G1 X131.068 Y97.261 E14.13036
G1 X132.253 Y98.445 E14.22466
G1 X132.608 Y98.091 E14.25289
G1 X131.423 Y96.906 E14.34719
G1 X131.778 Y96.552 E14.37542
G1 X132.962 Y97.736 E14.46972
G1 X133.317 Y97.381 E14.49795
G1 X132.132 Y96.197 E14.59224
G1 X132.487 Y95.842 E14.62048
G1 X133.671 Y97.027 E14.71477
G1 X134.026 Y96.672 E14.74301
G1 X132.842 Y95.488 E14.83730
G1 X133.196 Y95.133 E14.86553
G1 X134.381 Y96.318 E14.95983
G1 X134.735 Y95.963 E14.98806
G1 X133.551 Y94.779 E15.08236
G1 X133.905 Y94.424 E15.11059
G1 X135.090 Y95.608 E15.20489
G1 X135.444 Y95.254 E15.23312
G1 X134.260 Y94.069 E15.32742
G1 X134.615 Y93.715 E15.35565
G1 X135.799 Y94.899 E15.44995
G1 X136.154 Y94.544 E15.47818
G1 X134.969 Y93.360 E15.57248
G1 X135.324 Y93.005 E15.60071
G1 X136.508 Y94.190 E15.69500
G1 X136.863 Y93.835 E15.72324
G1 X135.678 Y92.651 E15.81753
G1 X136.033 Y92.296 E15.84577
G1 X137.218 Y93.481 E15.94006
G1 X137.572 Y93.126 E15.96829
G1 X136.388 Y91.942 E16.06259
G1 X136.742 Y91.587 E16.09082
G1 X137.927 Y92.771 E16.18512
G1 X138.281 Y92.417 E16.21335
G1 X137.097 Y91.232 E16.30765
G1 X137.452 Y90.878 E16.33588
G1 X138.636 Y92.062 E16.43018
G1 X138.991 Y91.708 E16.45841
G1 X137.806 Y90.523 E16.55271
G1 X138.161 Y90.168 E16.58094
G1 X139.345 Y91.353 E16.67524
G1 X139.700 Y90.998 E16.70347
G1 X138.515 Y89.814 E16.79776
G1 X138.870 Y89.459 E16.82600
G1 X140.054 Y90.644 E16.92029
G1 X140.409 Y90.289 E16.94853
G1 X139.225 Y89.105 E17.04282
G1 X139.579 Y88.750 E17.07105
G1 X140.764 Y89.934 E17.16535
G1 X141.118 Y89.580 E17.19358
G1 X139.934 Y88.395 E17.28788
G1 X140.288 Y88.041 E17.31611
G1 X141.473 Y89.225 E17.41041
G1 X141.828 Y88.871 E17.43864
G1 X140.643 Y87.686 E17.53294
G1 X140.998 Y87.332 E17.56117
G1 X142.182 Y88.516 E17.65547
G1 X142.537 Y88.161 E17.68370
G1 X141.352 Y86.977 E17.77800
G1 X141.707 Y86.622 E17.80623
G1 X142.891 Y87.807 E17.90052
G1 X143.246 Y87.452 E17.92876
G1 X142.062 Y86.268 E18.02305
G1 X142.416 Y85.913 E18.05129
G1 X143.601 Y87.098 E18.14558
G1 X143.955 Y86.743 E18.17381
G1 X142.771 Y85.558 E18.26811
G1 X143.125 Y85.204 E18.29634
G1 X144.310 Y86.388 E18.39064
G1 X144.664 Y86.034 E18.41887
G1 X143.480 Y84.849 E18.51317
G1 X143.835 Y84.495 E18.54140
G1 X145.019 Y85.679 E18.63570
G1 X145.374 Y85.324 E18.66393
G1 X144.189 Y84.140 E18.75823
G1 X144.544 Y83.785 E18.78646
G1 X145.728 Y84.970 E18.88076
G1 X146.083 Y84.615 E18.90899
G1 X144.899 Y83.431 E19.00328
G1 X145.253 Y83.076 E19.03152
G1 X146.438 Y84.261 E19.12581
G1 X146.792 Y83.906 E19.15405
G1 X145.608 Y82.722 E19.24834
G1 X145.962 Y82.367 E19.27657
G1 X147.147 Y83.551 E19.37087
G1 X147.501 Y83.197 E19.39910
G1 X146.317 Y82.012 E19.49340
G1 X146.672 Y81.658 E19.52163
G1 X147.856 Y82.842 E19.61593
G1 X148.211 Y82.488 E19.64416
G1 X147.026 Y81.303 E19.73846
G1 X147.381 Y80.948 E19.76669
G1 X148.565 Y82.133 E19.86099
G1 X148.920 Y81.778 E19.88922
G1 X147.735 Y80.594 E19.98352
G1 X148.090 Y80.239 E20.01175
G1 X149.274 Y81.424 E20.10604
G1 X149.629 Y81.069 E20.13428
G1 X148.445 Y79.885 E20.22857
G1 X148.799 Y79.530 E20.25681
G1 X149.984 Y80.714 E20.35110
G1 X150.338 Y80.360 E20.37933
G1 X149.154 Y79.175 E20.47363
G1 X149.509 Y78.821 E20.50186
G1 X150.693 Y80.005 E20.59616
G1 X151.048 Y79.651 E20.62439
G1 X149.863 Y78.466 E20.71869
G1 X150.218 Y78.112 E20.74692
G1 X151.402 Y79.296 E20.84122
G1 X151.757 Y78.941 E20.86945
G1 X150.572 Y77.757 E20.96375
G1 X150.927 Y77.402 E20.99198
G1 X152.111 Y78.587 E21.08628
G1 X152.466 Y78.232 E21.11451
G1 X151.282 Y77.048 E21.20881
G1 X151.636 Y76.693 E21.23704
G1 X152.821 Y77.878 E21.33133
G1 X153.175 Y77.523 E21.35957
G1 X151.991 Y76.338 E21.45386
G1 X152.345 Y75.984 E21.48210
G1 X153.530 Y77.168 E21.57639
G1 X153.884 Y76.814 E21.60462
G1 X152.700 Y75.629 E21.69892
G1 X153.055 Y75.275 E21.72715
G1 X154.239 Y76.459 E21.82145
G1 X154.594 Y76.104 E21.84968
G1 X153.409 Y74.920 E21.94398
G1 X153.764 Y74.565 E21.97221
G1 X154.948 Y75.750 E22.06651
G1 X155.303 Y75.395 E22.09474
G1 X154.119 Y74.211 E22.18904
G1 X154.473 Y73.856 E22.21727
G1 X155.658 Y75.041 E22.31157
G1 X156.012 Y74.686 E22.33980
G1 X154.828 Y73.502 E22.43409
G1 X155.182 Y73.147 E22.46233
G1 X156.367 Y74.331 E22.55662
G1 X156.721 Y73.977 E22.58486
G1 X155.537 Y72.792 E22.67915
G1 X155.892 Y72.438 E22.70738
G1 X157.076 Y73.622 E22.80168
G1 X157.431 Y73.268 E22.82991
G1 X156.246 Y72.083 E22.92421
G1 X156.601 Y71.728 E22.95244
G1 X157.785 Y72.913 E23.04674
G1 X158.140 Y72.558 E23.07497
G1 X156.955 Y71.374 E23.16927
G1 X157.310 Y71.019 E23.19750
G1 X158.494 Y72.204 E23.29180
G1 X158.849 Y71.849 E23.32003
G1 X157.665 Y70.665 E23.41433
G1 X158.019 Y70.310 E23.44256
G1 X159.204 Y71.494 E23.53685
G1 X159.558 Y71.140 E23.56509
G1 X158.374 Y69.955 E23.65938
G1 X158.729 Y69.601 E23.68762
G1 X159.913 Y70.785 E23.78191
G1 X160.268 Y70.431 E23.81014
G1 X159.083 Y69.246 E23.90444
G1 X159.438 Y68.892 E23.93267
G1 X160.622 Y70.076 E24.02697
G1 X160.977 Y69.721 E24.05520
G1 X159.792 Y68.537 E24.14950
G1 X160.147 Y68.182 E24.17773
G1 X161.331 Y69.367 E24.27203
G1 X161.686 Y69.012 E24.30026
G1 X160.502 Y67.828 E24.39456
G1 X160.856 Y67.473 E24.42279
G1 X162.041 Y68.657 E24.51709
G1 F4800.000 E22.51709
G92 E0
G1 X151.434 Y58.051 F15000.000
G1 E2.00000 F4800.000
G1 X150.250 Y56.866 E2.09430 F1200.000
G1 X149.895 Y57.221 E2.12253
G1 X151.079 Y58.406 E2.21683
G1 X150.725 Y58.760 E2.24506
G1 X149.540 Y57.576 E2.33936
G1 X149.186 Y57.930 E2.36759
G1 X150.370 Y59.115 E2.46189
G1 X150.016 Y59.469 E2.49012
G1 X148.831 Y58.285 E2.58441
G1 X148.477 Y58.640 E2.61265
G1 X149.661 Y59.824 E2.70694
G1 X149.306 Y60.179 E2.73518
G1 X148.122 Y58.994 E2.82947
G1 X147.767 Y59.349 E2.85771
G1 X148.952 Y60.533 E2.95200
G1 X148.597 Y60.888 E2.98024
G1 X147.413 Y59.703 E3.07453
G1 X147.058 Y60.058 E3.10276
G1 X148.243 Y61.242 E3.19706
G1 X147.888 Y61.597 E3.22529
G1 X146.703 Y60.413 E3.31959
G1 X146.349 Y60.767 E3.34782
G1 X147.533 Y61.952 E3.44212
G1 X147.179 Y62.306 E3.47035
G1 X145.994 Y61.122 E3.56465
G1 X145.640 Y61.476 E3.59288
G1 X146.824 Y62.661 E3.68718
G1 X146.469 Y63.016 E3.71541
G1 X145.285 Y61.831 E3.80971
G1 X144.930 Y62.186 E3.83794
G1 X146.115 Y63.370 E3.93224
G1 X145.760 Y63.725 E3.96047
G1 X144.576 Y62.540 E4.05477
G1 X144.221 Y62.895 E4.08300
